; generated by Slic3r 1.1.7 on 2014-11-25 at 00:44:31

; perimeters extrusion width = 0.35mm
; infill extrusion width = 0.37mm
; solid infill extrusion width = 0.37mm
; top infill extrusion width = 0.37mm

G21 ; set units to millimeters
M107
;-- Slic3r Start G-Code for M2 starts --
;  Ed Nisley KE4NZU - March 2013
M140 S60; start bed heating
G90             ; absolute coordinates
G21             ; millimeters
M83             ; relative extrusion distance
M84             ; disable stepper current
G4 S3           ; allow Z stage to freefall to the floor
G28 X0          ; home X
G28 Y0          ; home Y
G28 Z0          ; home Z
G1 X95 Y5 F30000    ; set up for prime near front edge
G1 Z0.0 F2500   ; plug extruder on plate
G1 E10 F300     ; prime to get pressure
G1 Z5 F2500     ; rise above blob
G1 Y10 F30000 ; move away
G1 Z0.0 F2500   ; dab nozzle to remove outer snot
G4 P1           ; pause to clear
G1 Z0.1         ; clear bed for travel
M190 60       ; wait for bed to finish heating
M109 195     ; set extruder temperature and wait
;-- Slic3r Start G-Code ends --
G90 ; use absolute coordinates
G92 E0
M82 ; use absolute distances for extrusion
G1 F600.000 E-1.00000
G1 Z1.150 F18000.000
G92 E0
G1 X51.545 Y90.856 F18000.000
G1 Z0.350 F18000.000
G1 E1.00000 F600.000
G1 X54.000 Y90.300 E1.12819 F1440.000
G1 X136.000 Y90.300 E5.30441
G1 X138.089 Y90.696 E5.41269
G1 X139.887 Y91.831 E5.52097 F1440.000
G1 X141.144 Y93.545 E5.62925
G1 X141.700 Y96.000 E5.75744
G1 X141.700 Y154.000 E8.71135
G1 X141.304 Y156.089 E8.81963
G1 X140.169 Y157.887 E8.92791
G1 X138.455 Y159.144 E9.03619
G1 X136.000 Y159.700 E9.16437
G1 X54.000 Y159.700 E13.34060
G1 X51.911 Y159.304 E13.44888
G1 X50.113 Y158.169 E13.55715
G1 X48.856 Y156.455 E13.66543
G1 X48.300 Y154.000 E13.79362
G1 X48.300 Y96.000 E16.74754
G1 X48.696 Y93.911 E16.85581
G1 X49.831 Y92.113 E16.96409
G1 X51.503 Y90.887 E17.06970
G1 X51.760 Y91.168 F18000.000
G1 X51.873 Y91.091 E17.07665 F1440.000
G1 X54.000 Y90.650 E17.18729
G1 X136.000 Y90.650 E21.36352
G1 X138.021 Y91.046 E21.46839
G1 X139.742 Y92.176 E21.57326 F1440.000
G1 X140.909 Y93.873 E21.67813
G1 X141.350 Y96.000 E21.78877
G1 X141.350 Y154.000 E24.74269
G1 X140.954 Y156.021 E24.84756
G1 X139.824 Y157.742 E24.95243
G1 X138.127 Y158.909 E25.05730
G1 X136.000 Y159.350 E25.16794
G1 X54.000 Y159.350 E29.34416
G1 X51.979 Y158.954 E29.44903
G1 X50.258 Y157.824 E29.55390
G1 X49.091 Y156.127 E29.65877
G1 X48.650 Y154.000 E29.76941
G1 X48.650 Y96.000 E32.72333
G1 X49.046 Y93.979 E32.82820
G1 X50.176 Y92.258 E32.93307
G1 X51.717 Y91.198 E33.02831
G1 F600.000 E32.02831
G1 Z1.150 F18000.000
G92 E0
G1 X96.075 Y95.203 F18000.000
G1 Z0.350 F18000.000
G1 E1.00000 F600.000
G1 X97.203 Y94.075 E1.08122 F1440.000
G1 X136.797 Y94.075 E3.09776
G1 X137.925 Y95.203 E3.17898
G1 X137.925 Y154.797 E6.21411 F1440.000
G1 X136.797 Y155.925 E6.29533
G1 X97.203 Y155.925 E8.31187
G1 X96.075 Y154.797 E8.39309
G1 X96.075 Y95.255 E11.42555
G1 X96.425 Y95.348 F18000.000
G1 X97.348 Y94.425 E11.49200 F1440.000
G1 X136.652 Y94.425 E13.49378
G1 X137.575 Y95.348 E13.56023 F1440.000
G1 X137.575 Y154.652 E16.58060
G1 X136.652 Y155.575 E16.64705
G1 X97.348 Y155.575 E18.64882
G1 X96.425 Y154.652 E18.71527
G1 X96.425 Y95.400 E21.73297
G1 X96.775 Y95.493 F18000.000
G1 X97.493 Y94.775 E21.78465 F1440.000
G1 X136.507 Y94.775 E23.77166
G1 X137.225 Y95.493 E23.82335
G1 X137.225 Y154.507 E26.82895 F1440.000
G1 X136.507 Y155.225 E26.88063
G1 X97.493 Y155.225 E28.86764
G1 X96.775 Y154.507 E28.91932
G1 X96.775 Y95.545 E31.92225
G1 X97.125 Y95.638 F18000.000
G1 X97.638 Y95.125 E31.95917 F1440.000
G1 X136.362 Y95.125 E33.93141
G1 X136.875 Y95.638 E33.96832 F1440.000
G1 X136.875 Y154.362 E36.95916
G1 X136.362 Y154.875 E36.99608
G1 X97.638 Y154.875 E38.96832
G1 X97.125 Y154.362 E39.00523
G1 X97.125 Y95.690 E41.99339
G1 X97.475 Y95.783 F18000.000
G1 X97.783 Y95.475 E42.01554 F1440.000
G1 X136.217 Y95.475 E43.97302
G1 X136.525 Y95.783 E43.99517
G1 X136.525 Y154.217 E46.97123 F1440.000
G1 X136.217 Y154.525 E46.99339
G1 X97.783 Y154.525 E48.95086
G1 X97.475 Y154.217 E48.97301
G1 X97.475 Y95.835 E51.94640
G1 X97.928 Y95.825 F18000.000
G1 X136.072 Y95.825 E53.88911 F1440.000
G1 X136.175 Y95.928 E53.89649
G1 X136.175 Y154.072 E56.85779
G1 X136.072 Y154.175 E56.86518
G1 X97.928 Y154.175 E58.80788
G1 X97.825 Y154.072 E58.81527
G1 X97.825 Y95.928 E61.77657
G1 X97.890 Y95.862 E61.78128
G1 F600.000 E60.78128
G1 Z1.150 F18000.000
G92 E0
G1 X93.367 Y103.105 F18000.000
G1 Z0.350 F18000.000
G1 E1.00000 F600.000
G1 X93.367 Y103.395 E1.01477 F1440.000
G1 X93.925 Y103.953 E1.05493
G1 X93.925 Y117.547 E1.74731
G1 X93.367 Y118.105 E1.78747
G1 X93.367 Y118.395 E1.80224
G1 X93.925 Y118.953 E1.84241
G1 X93.925 Y132.547 E2.53478
G1 X93.367 Y133.105 E2.57494
G1 X93.367 Y133.395 E2.58971
G1 X93.925 Y133.953 E2.62988
G1 X93.925 Y147.547 E3.32225
G1 X93.367 Y148.105 E3.36242
G1 X93.367 Y148.395 E3.37718
G1 X93.925 Y148.953 E3.41735
G1 X93.925 Y154.797 E3.71502
G1 X92.797 Y155.925 E3.79624
G1 X53.203 Y155.925 E5.81278
G1 X52.075 Y154.797 E5.89400
G1 X52.075 Y148.953 E6.19167
G1 X52.633 Y148.395 E6.23183
G1 X52.633 Y148.105 E6.24660
G1 X52.075 Y147.547 E6.28677
G1 X52.075 Y133.953 E6.97914
G1 X52.633 Y133.395 E7.01931
G1 X52.633 Y133.105 E7.03407
G1 X52.075 Y132.547 E7.07424
G1 X52.075 Y118.953 E7.76661
G1 X52.633 Y118.395 E7.80678
G1 X52.633 Y118.105 E7.82155
G1 X52.075 Y117.547 E7.86171
G1 X52.075 Y103.953 E8.55408
G1 X52.633 Y103.395 E8.59425
G1 X52.633 Y103.105 E8.60902
G1 X52.075 Y102.547 E8.64918
G1 X52.075 Y95.203 E9.02325
G1 X53.203 Y94.075 E9.10447
G1 X92.797 Y94.075 E11.12101
G1 X93.925 Y95.203 E11.20223
G1 X93.925 Y102.547 E11.57629
G1 X93.404 Y103.068 E11.61378
G1 X92.872 Y103.105 F18000.000
G1 X92.872 Y103.395 E11.62855 F1440.000
G1 X93.575 Y104.098 E11.67916
G1 X93.575 Y117.402 E12.35676
G1 X92.872 Y118.105 E12.40737
G1 X92.872 Y118.395 E12.42214
G1 X93.575 Y119.098 E12.47275
G1 X93.575 Y132.402 E13.15035
G1 X92.872 Y133.105 E13.20096
G1 X92.872 Y133.395 E13.21573
G1 X93.575 Y134.098 E13.26634
G1 X93.575 Y147.402 E13.94394
G1 X92.872 Y148.105 E13.99455
G1 X92.872 Y148.395 E14.00932
G1 X93.575 Y149.098 E14.05992
G1 X93.575 Y154.652 E14.34283
G1 X92.652 Y155.575 E14.40928
G1 X53.348 Y155.575 E16.41105
G1 X52.425 Y154.652 E16.47750
G1 X52.425 Y149.098 E16.76041
G1 X53.128 Y148.395 E16.81101
G1 X53.128 Y148.105 E16.82578
G1 X52.425 Y147.402 E16.87639
G1 X52.425 Y134.098 E17.55400
G1 X53.128 Y133.395 E17.60460
G1 X53.128 Y133.105 E17.61937
G1 X52.425 Y132.402 E17.66998
G1 X52.425 Y119.098 E18.34758
G1 X53.128 Y118.395 E18.39819
G1 X53.128 Y118.105 E18.41296
G1 X52.425 Y117.402 E18.46357
G1 X52.425 Y104.098 E19.14117
G1 X53.128 Y103.395 E19.19178
G1 X53.128 Y103.105 E19.20655
G1 X52.425 Y102.402 E19.25716
G1 X52.425 Y95.348 E19.61645
G1 X53.348 Y94.425 E19.68290
G1 X92.652 Y94.425 E21.68468
G1 X93.575 Y95.348 E21.75113
G1 X93.575 Y102.402 E22.11043
G1 X92.909 Y103.068 E22.15836
G1 X92.377 Y103.105 F18000.000
G1 X92.377 Y103.395 E22.17313 F1440.000
G1 X93.225 Y104.243 E22.23418
G1 X93.225 Y117.257 E22.89702
G1 X92.377 Y118.105 E22.95807
G1 X92.377 Y118.395 E22.97283
G1 X93.225 Y119.243 E23.03388
G1 X93.225 Y132.257 E23.69672
G1 X92.377 Y133.105 E23.75777
G1 X92.377 Y133.395 E23.77254
G1 X93.225 Y134.243 E23.83359
G1 X93.225 Y147.257 E24.49643
G1 X92.377 Y148.105 E24.55748
G1 X92.377 Y148.395 E24.57225
G1 X93.225 Y149.243 E24.63330
G1 X93.225 Y154.507 E24.90143
G1 X92.507 Y155.225 E24.95312
G1 X53.493 Y155.225 E26.94012
G1 X52.775 Y154.507 E26.99181
G1 X52.775 Y149.243 E27.25994
G1 X53.623 Y148.395 E27.32099
G1 X53.623 Y148.105 E27.33576
G1 X52.775 Y147.257 E27.39681
G1 X52.775 Y134.243 E28.05965
G1 X53.623 Y133.395 E28.12070
G1 X53.623 Y133.105 E28.13547
G1 X52.775 Y132.257 E28.19652
G1 X52.775 Y119.243 E28.85936
G1 X53.623 Y118.395 E28.92040
G1 X53.623 Y118.105 E28.93517
G1 X52.775 Y117.257 E28.99622
G1 X52.775 Y104.243 E29.65906
G1 X53.623 Y103.395 E29.72011
G1 X53.623 Y103.105 E29.73488
G1 X52.775 Y102.257 E29.79593
G1 X52.775 Y95.493 E30.14046
G1 X53.493 Y94.775 E30.19214
G1 X92.507 Y94.775 E32.17915
G1 X93.225 Y95.493 E32.23083
G1 X93.225 Y102.257 E32.57536
G1 X92.415 Y103.068 E32.63374
G1 X92.362 Y102.625 F18000.000
G1 X53.638 Y102.625 E34.60598 F1440.000
G1 X53.125 Y102.112 E34.64290
G1 X53.125 Y95.638 E34.97266
G1 X53.638 Y95.125 E35.00958
G1 X92.362 Y95.125 E36.98182
G1 X92.875 Y95.638 E37.01874 F1440.000
G1 X92.875 Y102.112 E37.34850
G1 X92.400 Y102.588 E37.38274
G1 X92.217 Y102.275 F18000.000
G1 X53.783 Y102.275 E39.34022 F1440.000
G1 X53.475 Y101.967 E39.36237
G1 X53.475 Y95.783 E39.67736
G1 X53.783 Y95.475 E39.69951
G1 X92.217 Y95.475 E41.65699
G1 X92.525 Y95.783 E41.67914
G1 X92.525 Y101.967 E41.99413 F1440.000
G1 X92.255 Y102.238 E42.01361
G1 X92.072 Y101.925 F18000.000
G1 X53.928 Y101.925 E43.95632 F1440.000
G1 X53.825 Y101.822 E43.96370
G1 X53.825 Y95.928 E44.26393
G1 X53.928 Y95.825 E44.27131
G1 X92.072 Y95.825 E46.21402
G1 X92.175 Y95.928 E46.22141
G1 X92.175 Y101.822 E46.52163
G1 X92.110 Y101.888 E46.52634
G1 X92.072 Y103.875 F18000.000
G1 X92.362 Y103.875 E46.54111 F1440.000
G1 X92.875 Y104.388 E46.57803 F1440.000
G1 X92.875 Y117.112 E47.22610
G1 X92.362 Y117.625 E47.26302
G1 X53.638 Y117.625 E49.23526
G1 X53.125 Y117.112 E49.27218
G1 X53.125 Y104.388 E49.92025
G1 X53.638 Y103.875 E49.95717
G1 X92.020 Y103.875 E51.91197
G1 X92.072 Y104.225 F18000.000
G1 X92.217 Y104.225 E51.91935 F1440.000
G1 X92.525 Y104.533 E51.94150
G1 X92.525 Y116.967 E52.57481 F1440.000
G1 X92.217 Y117.275 E52.59696
G1 X53.783 Y117.275 E54.55443
G1 X53.475 Y116.967 E54.57658
G1 X53.475 Y104.533 E55.20989
G1 X53.783 Y104.225 E55.23204
G1 X92.020 Y104.225 E57.17945
G1 X92.072 Y104.575 F18000.000
G1 X92.175 Y104.678 E57.18684 F1440.000
G1 X92.175 Y116.822 E57.80538
G1 X92.072 Y116.925 E57.81276
G1 X53.928 Y116.925 E59.75547
G1 X53.825 Y116.822 E59.76285
G1 X53.825 Y104.678 E60.38139
G1 X53.928 Y104.575 E60.38877
G1 X92.020 Y104.575 E62.32881
G1 F600.000 E61.32881
G1 Z1.150 F18000.000
G92 E0
G1 X92.072 Y118.875 F18000.000
G1 Z0.350 F18000.000
G1 E1.00000 F600.000
G1 X92.362 Y118.875 E1.01477 F1440.000
G1 X92.875 Y119.388 E1.05168 F1440.000
G1 X92.875 Y132.112 E1.69976
G1 X92.362 Y132.625 E1.73667
G1 X53.638 Y132.625 E3.70892
G1 X53.125 Y132.112 E3.74583
G1 X53.125 Y119.388 E4.39391
G1 X53.638 Y118.875 E4.43082
G1 X92.020 Y118.875 E6.38562
G1 X92.072 Y119.225 F18000.000
G1 X92.217 Y119.225 E6.39301 F1440.000
G1 X92.525 Y119.533 E6.41516
G1 X92.525 Y131.967 E7.04846 F1440.000
G1 X92.217 Y132.275 E7.07061
G1 X53.783 Y132.275 E9.02809
G1 X53.475 Y131.967 E9.05024
G1 X53.475 Y119.533 E9.68354
G1 X53.783 Y119.225 E9.70569
G1 X92.020 Y119.225 E11.65311
G1 X92.072 Y119.575 F18000.000
G1 X92.175 Y119.678 E11.66049 F1440.000
G1 X92.175 Y131.822 E12.27903
G1 X92.072 Y131.925 E12.28642
G1 X53.928 Y131.925 E14.22912
G1 X53.825 Y131.822 E14.23651
G1 X53.825 Y119.678 E14.85505
G1 X53.928 Y119.575 E14.86243
G1 X92.020 Y119.575 E16.80246
G1 F600.000 E15.80246
G1 Z1.150 F18000.000
G92 E0
G1 X92.072 Y133.875 F18000.000
G1 Z0.350 F18000.000
G1 E1.00000 F600.000
G1 X92.362 Y133.875 E1.01477 F1440.000
G1 X92.875 Y134.388 E1.05168 F1440.000
G1 X92.875 Y147.112 E1.69976
G1 X92.362 Y147.625 E1.73667
G1 X53.638 Y147.625 E3.70892
G1 X53.125 Y147.112 E3.74583
G1 X53.125 Y134.388 E4.39391
G1 X53.638 Y133.875 E4.43082
G1 X92.020 Y133.875 E6.38562
G1 X92.072 Y134.225 F18000.000
G1 X92.217 Y134.225 E6.39301 F1440.000
G1 X92.525 Y134.533 E6.41516
G1 X92.525 Y146.967 E7.04846 F1440.000
G1 X92.217 Y147.275 E7.07061
G1 X53.783 Y147.275 E9.02809
G1 X53.475 Y146.967 E9.05024
G1 X53.475 Y134.533 E9.68354
G1 X53.783 Y134.225 E9.70569
G1 X92.020 Y134.225 E11.65311
G1 X92.072 Y134.575 F18000.000
G1 X92.175 Y134.678 E11.66049 F1440.000
G1 X92.175 Y146.822 E12.27903
G1 X92.072 Y146.925 E12.28642
G1 X53.928 Y146.925 E14.22912
G1 X53.825 Y146.822 E14.23651
G1 X53.825 Y134.678 E14.85505
G1 X53.928 Y134.575 E14.86243
G1 X92.020 Y134.575 E16.80246
G1 F600.000 E15.80246
G1 Z1.150 F18000.000
G92 E0
G1 X92.072 Y148.875 F18000.000
G1 Z0.350 F18000.000
G1 E1.00000 F600.000
G1 X92.362 Y148.875 E1.01477 F1440.000
G1 X92.875 Y149.388 E1.05168 F1440.000
G1 X92.875 Y154.362 E1.30505
G1 X92.362 Y154.875 E1.34197
G1 X53.638 Y154.875 E3.31421
G1 X53.125 Y154.362 E3.35113
G1 X53.125 Y149.388 E3.60450
G1 X53.638 Y148.875 E3.64141
G1 X92.020 Y148.875 E5.59621
G1 X92.072 Y149.225 F18000.000
G1 X92.217 Y149.225 E5.60360 F1440.000
G1 X92.525 Y149.533 E5.62575
G1 X92.525 Y154.217 E5.86435 F1440.000
G1 X92.217 Y154.525 E5.88650
G1 X53.783 Y154.525 E7.84397
G1 X53.475 Y154.217 E7.86613
G1 X53.475 Y149.533 E8.10473
G1 X53.783 Y149.225 E8.12688
G1 X92.020 Y149.225 E10.07429
G1 X92.072 Y149.575 F18000.000
G1 X92.175 Y149.678 E10.08168 F1440.000
G1 X92.175 Y154.072 E10.30551
G1 X92.072 Y154.175 E10.31290
G1 X53.928 Y154.175 E12.25560
G1 X53.825 Y154.072 E12.26299
G1 X53.825 Y149.678 E12.48682
G1 X53.928 Y149.575 E12.49420
G1 X92.020 Y149.575 E14.43424
G1 F600.000 E13.43424
G1 Z1.150 F18000.000
G92 E0
G1 X91.825 Y153.825 F18000.000
G1 Z0.350 F18000.000
G1 E1.00000 F600.000
G1 X54.175 Y153.825 E2.91750 F1080.000
G1 X54.175 Y149.925 E3.11612
G1 X91.825 Y149.925 E5.03362
G1 X91.825 Y153.773 E5.22957
G1 X91.522 Y153.650 F18000.000
G1 X91.475 Y153.475 F18000.000
G1 X54.525 Y153.475 E7.11142 F1080.000
G1 X54.525 Y150.275 E7.27440
G1 X91.475 Y150.275 E9.15625
G1 X91.475 Y153.423 E9.31655
G1 X91.125 Y153.125 F18000.000
G1 X54.875 Y153.125 E11.16274 F1080.000
G1 X54.875 Y150.625 E11.29007
G1 X91.125 Y150.625 E13.13627
G1 X91.125 Y153.073 E13.26092
G1 X90.848 Y150.862 F18000.000
G1 X90.888 Y150.902 E13.26391 F1440.000
G1 X90.888 Y151.419 E13.29126
G1 X90.331 Y150.862 E13.33294
G1 X89.815 Y150.862 E13.36029
G1 X90.888 Y151.935 E13.44064
G1 X90.888 Y152.452 E13.46799
G1 X89.298 Y150.862 E13.58703
G1 X88.781 Y150.862 E13.61438
G1 X90.808 Y152.888 E13.76606
G1 X90.291 Y152.888 E13.79341
G1 X88.264 Y150.862 E13.94509
G1 X87.748 Y150.862 E13.97245
G1 X89.774 Y152.888 E14.12413
G1 X89.257 Y152.888 E14.15148
G1 X87.231 Y150.862 E14.30316
G1 X86.714 Y150.862 E14.33051
G1 X88.741 Y152.888 E14.48219
G1 X88.224 Y152.888 E14.50954
G1 X86.197 Y150.862 E14.66122
G1 X85.681 Y150.862 E14.68857
G1 X87.707 Y152.888 E14.84026
G1 X87.190 Y152.888 E14.86761
G1 X85.164 Y150.862 E15.01929
G1 X84.647 Y150.862 E15.04664
G1 X86.674 Y152.888 E15.19832
G1 X86.157 Y152.888 E15.22567
G1 X84.130 Y150.862 E15.37735
G1 X83.614 Y150.862 E15.40470
G1 X85.640 Y152.888 E15.55638
G1 X85.123 Y152.888 E15.58373
G1 X83.097 Y150.862 E15.73542
G1 X82.580 Y150.862 E15.76277
G1 X84.607 Y152.888 E15.91445
G1 X84.090 Y152.888 E15.94180
G1 X82.063 Y150.862 E16.09348
G1 X81.547 Y150.862 E16.12083
G1 X83.573 Y152.888 E16.27251
G1 X83.056 Y152.888 E16.29986
G1 X81.030 Y150.862 E16.45154
G1 X80.513 Y150.862 E16.47889
G1 X82.540 Y152.888 E16.63058
G1 X82.023 Y152.888 E16.65793
G1 X79.996 Y150.862 E16.80961
G1 X79.480 Y150.862 E16.83696
G1 X81.506 Y152.888 E16.98864
G1 X80.989 Y152.888 E17.01599
G1 X78.963 Y150.862 E17.16767
G1 X78.446 Y150.862 E17.19502
G1 X80.473 Y152.888 E17.34670
G1 X79.956 Y152.888 E17.37405
G1 X77.929 Y150.862 E17.52574
G1 X77.413 Y150.862 E17.55309
G1 X79.439 Y152.888 E17.70477
G1 X78.922 Y152.888 E17.73212
G1 X76.896 Y150.862 E17.88380
G1 X76.379 Y150.862 E17.91115
G1 X78.406 Y152.888 E18.06283
G1 X77.889 Y152.888 E18.09018
G1 X75.862 Y150.862 E18.24186
G1 X75.346 Y150.862 E18.26922
G1 X77.372 Y152.888 E18.42090
G1 X76.855 Y152.888 E18.44825
G1 X74.829 Y150.862 E18.59993
G1 X74.312 Y150.862 E18.62728
G1 X76.339 Y152.888 E18.77896
G1 X75.822 Y152.888 E18.80631
G1 X73.795 Y150.862 E18.95799
G1 X73.279 Y150.862 E18.98534
G1 X75.305 Y152.888 E19.13702
G1 X74.788 Y152.888 E19.16438
G1 X72.762 Y150.862 E19.31606
G1 X72.245 Y150.862 E19.34341
G1 X74.272 Y152.888 E19.49509
G1 X73.755 Y152.888 E19.52244
G1 X71.728 Y150.862 E19.67412
G1 X71.212 Y150.862 E19.70147
G1 X73.238 Y152.888 E19.85315
G1 X72.721 Y152.888 E19.88050
G1 X70.695 Y150.862 E20.03218
G1 X70.178 Y150.862 E20.05954
G1 X72.205 Y152.888 E20.21122
