; generated by Slic3r 1.1.7 on 2014-11-24 at 23:07:59

; perimeters extrusion width = 0.35mm
; infill extrusion width = 0.37mm
; solid infill extrusion width = 0.37mm
; top infill extrusion width = 0.37mm

G21 ; set units to millimeters
M107
;-- Slic3r Start G-Code for M2 starts --
;  Ed Nisley KE4NZU - March 2013
M140 S60; start bed heating
G90             ; absolute coordinates
G21             ; millimeters
M83             ; relative extrusion distance
M84             ; disable stepper current
G4 S3           ; allow Z stage to freefall to the floor
G28 X0          ; home X
G28 Y0          ; home Y
G28 Z0          ; home Z
G1 X95 Y5 F30000    ; set up for prime near front edge
G1 Z0.0 F2500   ; plug extruder on plate
G1 E10 F300     ; prime to get pressure
G1 Z5 F2500     ; rise above blob
G1 Y10 F30000 ; move away
G1 Z0.0 F2500   ; dab nozzle to remove outer snot
G4 P1           ; pause to clear
G1 Z0.1         ; clear bed for travel
M190 60       ; wait for bed to finish heating
M109 195     ; set extruder temperature and wait
;-- Slic3r Start G-Code ends --
G90 ; use absolute coordinates
G92 E0
M82 ; use absolute distances for extrusion
G1 F600.000 E-1.00000
G1 Z1.150 F18000.000
G92 E0
G1 X49.545 Y89.856 F18000.000
G1 Z0.350 F18000.000
G1 E1.00000 F600.000
G1 X52.000 Y89.300 E1.12819 F1440.000
G1 X138.000 Y89.300 E5.50813
G1 X140.089 Y89.696 E5.61641
G1 X141.887 Y90.831 E5.72469 F1440.000
G1 X143.144 Y92.545 E5.83297
G1 X143.700 Y95.000 E5.96115
G1 X143.700 Y155.000 E9.01693
G1 X143.304 Y157.089 E9.12521
G1 X142.169 Y158.887 E9.23348
G1 X140.455 Y160.144 E9.34176
G1 X138.000 Y160.700 E9.46995
G1 X52.000 Y160.700 E13.84990
G1 X49.911 Y160.304 E13.95817
G1 X48.113 Y159.169 E14.06645
G1 X46.856 Y157.455 E14.17473
G1 X46.300 Y155.000 E14.30292
G1 X46.300 Y95.000 E17.35869
G1 X46.696 Y92.911 E17.46697
G1 X47.831 Y91.113 E17.57525
G1 X49.503 Y89.887 E17.68085
G1 X49.760 Y90.168 F18000.000
G1 X49.873 Y90.091 E17.68781 F1440.000
G1 X52.000 Y89.650 E17.79845
G1 X138.000 Y89.650 E22.17839
G1 X140.021 Y90.046 E22.28326
G1 X141.742 Y91.176 E22.38813 F1440.000
G1 X142.909 Y92.873 E22.49300
G1 X143.350 Y95.000 E22.60364
G1 X143.350 Y155.000 E25.65942
G1 X142.954 Y157.021 E25.76429
G1 X141.824 Y158.742 E25.86916
G1 X140.127 Y159.909 E25.97403
G1 X138.000 Y160.350 E26.08467
G1 X52.000 Y160.350 E30.46461
G1 X49.979 Y159.954 E30.56948
G1 X48.258 Y158.824 E30.67435
G1 X47.091 Y157.127 E30.77922
G1 X46.650 Y155.000 E30.88986
G1 X46.650 Y95.000 E33.94564
G1 X47.046 Y92.979 E34.05051
G1 X48.176 Y91.258 E34.15538
G1 X49.717 Y90.198 E34.25062
G1 F600.000 E33.25062
G1 Z1.150 F18000.000
G92 E0
G1 X96.075 Y94.203 F18000.000
G1 Z0.350 F18000.000
G1 E1.00000 F600.000
G1 X97.203 Y93.075 E1.08122 F1440.000
G1 X138.797 Y93.075 E3.19962
G1 X139.925 Y94.203 E3.28084
G1 X139.925 Y155.797 E6.41783 F1440.000
G1 X138.797 Y156.925 E6.49905
G1 X97.203 Y156.925 E8.61745
G1 X96.075 Y155.797 E8.69867
G1 X96.075 Y94.255 E11.83299
G1 X96.425 Y94.348 F18000.000
G1 X97.348 Y93.425 E11.89944 F1440.000
G1 X138.652 Y93.425 E14.00307
G1 X139.575 Y94.348 E14.06953 F1440.000
G1 X139.575 Y155.652 E17.19175
G1 X138.652 Y156.575 E17.25820
G1 X97.348 Y156.575 E19.36184
G1 X96.425 Y155.652 E19.42829
G1 X96.425 Y94.400 E22.54784
G1 X96.775 Y94.493 F18000.000
G1 X97.493 Y93.775 E22.59953 F1440.000
G1 X138.507 Y93.775 E24.68839
G1 X139.225 Y94.493 E24.74008
G1 X139.225 Y155.507 E27.84754 F1440.000
G1 X138.507 Y156.225 E27.89922
G1 X97.493 Y156.225 E29.98809
G1 X96.775 Y155.507 E30.03977
G1 X96.775 Y94.545 E33.14456
G1 X97.125 Y94.638 F18000.000
G1 X97.638 Y94.125 E33.18148 F1440.000
G1 X138.362 Y94.125 E35.25558
G1 X138.875 Y94.638 E35.29249 F1440.000
G1 X138.875 Y155.362 E38.38519
G1 X138.362 Y155.875 E38.42210
G1 X97.638 Y155.875 E40.49620
G1 X97.125 Y155.362 E40.53312
G1 X97.125 Y94.690 E43.62314
G1 X97.475 Y94.783 F18000.000
G1 X97.783 Y94.475 E43.64529 F1440.000
G1 X138.217 Y94.475 E45.70462
G1 X138.525 Y94.783 E45.72677
G1 X138.525 Y155.217 E48.80470 F1440.000
G1 X138.217 Y155.525 E48.82685
G1 X97.783 Y155.525 E50.88618
G1 X97.475 Y155.217 E50.90833
G1 X97.475 Y94.835 E53.98359
G1 X97.928 Y94.825 F18000.000
G1 X138.072 Y94.825 E56.02815 F1440.000
G1 X138.175 Y94.928 E56.03554
G1 X138.175 Y155.072 E59.09869
G1 X138.072 Y155.175 E59.10608
G1 X97.928 Y155.175 E61.15064
G1 X97.825 Y155.072 E61.15803
G1 X97.825 Y94.928 E64.22119
G1 X97.890 Y94.862 E64.22590
G1 F600.000 E63.22590
G1 Z1.150 F18000.000
G92 E0
G1 X93.925 Y94.825 F18000.000
G1 Z0.350 F18000.000
G1 E1.00000 F600.000
G1 X93.925 Y155.797 E4.10530 F1440.000
G1 X92.797 Y156.925 E4.18651
G1 X51.203 Y156.925 E6.30492
G1 X50.075 Y155.797 E6.38613
G1 X50.075 Y94.203 E9.52313
G1 X51.203 Y93.075 E9.60435
G1 X92.797 Y93.075 E11.72275
G1 X93.925 Y94.203 E11.80397
G1 X93.925 Y94.772 E11.83299 F1440.000
G1 X93.575 Y94.825 F18000.000
G1 X93.575 Y155.652 E14.93090 F1440.000
G1 X92.652 Y156.575 E14.99735
G1 X51.348 Y156.575 E17.10099
G1 X50.425 Y155.652 E17.16744
G1 X50.425 Y94.348 E20.28966
G1 X51.348 Y93.425 E20.35612
G1 X92.652 Y93.425 E22.45975
G1 X93.575 Y94.348 E22.52620 F1440.000
G1 X93.575 Y94.772 E22.54784
G1 X93.225 Y94.825 F18000.000
G1 X93.225 Y155.507 E25.63837 F1440.000
G1 X92.507 Y156.225 E25.69006
G1 X51.493 Y156.225 E27.77892
G1 X50.775 Y155.507 E27.83061
G1 X50.775 Y94.493 E30.93807
G1 X51.493 Y93.775 E30.98975
G1 X92.507 Y93.775 E33.07862
G1 X93.225 Y94.493 E33.13030
G1 X93.225 Y94.772 E33.14456 F1440.000
G1 X92.875 Y94.825 F18000.000
G1 X92.875 Y155.362 E36.22770 F1440.000
G1 X92.362 Y155.875 E36.26462
G1 X51.638 Y155.875 E38.33872
G1 X51.125 Y155.362 E38.37564
G1 X51.125 Y94.638 E41.46833
G1 X51.638 Y94.125 E41.50525
G1 X92.362 Y94.125 E43.57935
G1 X92.875 Y94.638 E43.61627 F1440.000
G1 X92.875 Y94.772 E43.62314
G1 X92.525 Y94.825 F18000.000
G1 X92.525 Y155.217 E46.69890 F1440.000
G1 X92.217 Y155.525 E46.72105
G1 X51.783 Y155.525 E48.78039
G1 X51.475 Y155.217 E48.80254
G1 X51.475 Y94.783 E51.88046
G1 X51.783 Y94.475 E51.90261
G1 X92.217 Y94.475 E53.96195
G1 X92.518 Y94.775 E53.98359
G1 X92.072 Y94.825 F18000.000
G1 X92.175 Y94.928 E53.99097 F1440.000
G1 X92.175 Y155.072 E57.05413
G1 X92.072 Y155.175 E57.06151
G1 X51.928 Y155.175 E59.10608
G1 X51.825 Y155.072 E59.11346
G1 X51.825 Y94.928 E62.17662
G1 X51.928 Y94.825 E62.18400
G1 X92.020 Y94.825 E64.22590
G1 F600.000 E63.22590
G1 Z1.150 F18000.000
G92 E0
G1 X91.825 Y154.825 F18000.000
G1 Z0.350 F18000.000
G1 E1.00000 F600.000
G1 X52.175 Y154.825 E3.01936 F1080.000
G1 X52.175 Y95.175 E6.05731
G1 X91.825 Y95.175 E8.07667
G1 X91.825 Y154.773 E11.11194
G1 X91.522 Y154.650 F18000.000
G1 X91.475 Y154.475 F18000.000
G1 X52.525 Y154.475 E13.09565 F1080.000
G1 X52.525 Y95.525 E16.09795
G1 X91.475 Y95.525 E18.08165
G1 X91.475 Y154.423 E21.08128
G1 X91.125 Y154.125 F18000.000
G1 X52.875 Y154.125 E23.02934 F1080.000
G1 X52.875 Y95.875 E25.99598
G1 X91.125 Y95.875 E27.94404
G1 X91.125 Y154.073 E30.90802
G1 X53.112 Y153.848 F18000.000
G1 X53.152 Y153.888 E30.91101 F1440.000
G1 X53.668 Y153.888 E30.93832
G1 X53.112 Y153.332 E30.97995
G1 X53.112 Y152.816 E31.00726
G1 X54.184 Y153.888 E31.08752
G1 X54.700 Y153.888 E31.11483
G1 X53.112 Y152.300 E31.23372
G1 X53.112 Y151.784 E31.26103
G1 X55.216 Y153.888 E31.41854
G1 X55.732 Y153.888 E31.44586
G1 X53.112 Y151.268 E31.64200
G1 X53.112 Y150.752 E31.66932
G1 X56.248 Y153.888 E31.90409
G1 X56.764 Y153.888 E31.93140
G1 X53.112 Y150.236 E32.20481
G1 X53.112 Y149.720 E32.23212
G1 X57.280 Y153.888 E32.54415
G1 X57.796 Y153.888 E32.57147
G1 X53.112 Y149.204 E32.92213
G1 X53.112 Y148.687 E32.94945
G1 X58.313 Y153.888 E33.33874
G1 X58.829 Y153.888 E33.36605
G1 X53.112 Y148.171 E33.79397
G1 X53.112 Y147.655 E33.82129
G1 X59.345 Y153.888 E34.28784
G1 X59.861 Y153.888 E34.31515
G1 X53.112 Y147.139 E34.82033
G1 X53.112 Y146.623 E34.84765
G1 X60.377 Y153.888 E35.39146
G1 X60.893 Y153.888 E35.41877
G1 X53.112 Y146.107 E36.00121
G1 X53.112 Y145.591 E36.02853
G1 X61.409 Y153.888 E36.64960
G1 X61.925 Y153.888 E36.67691
G1 X53.112 Y145.075 E37.33661
G1 X53.112 Y144.559 E37.36393
G1 X62.441 Y153.888 E38.06225
G1 X62.957 Y153.888 E38.08957
G1 X53.112 Y144.043 E38.82653
G1 X53.112 Y143.527 E38.85384
G1 X63.473 Y153.888 E39.62943
G1 X63.989 Y153.888 E39.65675
G1 X53.112 Y143.011 E40.47096
G1 X53.112 Y142.495 E40.49828
G1 X64.505 Y153.888 E41.35113
G1 X65.021 Y153.888 E41.37844
G1 X53.112 Y141.979 E42.26992
G1 X53.112 Y141.463 E42.29723
G1 X65.537 Y153.888 E43.22734
G1 X66.054 Y153.888 E43.25465
G1 X53.112 Y140.946 E44.22339
G1 X53.112 Y140.430 E44.25071
G1 X66.570 Y153.888 E45.25807
G1 X67.086 Y153.888 E45.28539
G1 X53.112 Y139.914 E46.33138
G1 X53.112 Y139.398 E46.35870
G1 X67.602 Y153.888 E47.44332
G1 X68.118 Y153.888 E47.47064
G1 X53.112 Y138.882 E48.59389
G1 X53.112 Y138.366 E48.62121
G1 X68.634 Y153.888 E49.78309
G1 X69.150 Y153.888 E49.81041
G1 X53.112 Y137.850 E51.01092
G1 X53.112 Y137.334 E51.03824
G1 X69.666 Y153.888 E52.27738
G1 X70.182 Y153.888 E52.30470
G1 X53.112 Y136.818 E53.58247
G1 X53.112 Y136.302 E53.60978
G1 X70.698 Y153.888 E54.92619
G1 X71.214 Y153.888 E54.95350
G1 X53.112 Y135.786 E56.30853
G1 X53.112 Y135.270 E56.33585
G1 X71.730 Y153.888 E57.72951
G1 X72.246 Y153.888 E57.75683
G1 X53.112 Y134.754 E59.18912
G1 X53.112 Y134.238 E59.21644
G1 X72.762 Y153.888 E60.68736
G1 X73.279 Y153.888 E60.71467
G1 X53.112 Y133.722 E62.22422
G1 X53.112 Y133.205 E62.25154
G1 X73.795 Y153.888 E63.79972
G1 X74.311 Y153.888 E63.82704
G1 X53.112 Y132.689 E65.41385
G1 X53.112 Y132.173 E65.44116
G1 X74.827 Y153.888 E67.06660
G1 X75.343 Y153.888 E67.09392
G1 X53.112 Y131.657 E68.75799
G1 X53.112 Y131.141 E68.78530
G1 X75.859 Y153.888 E70.48800
G1 X76.375 Y153.888 E70.51532
G1 X53.112 Y130.625 E72.25665
G1 X53.112 Y130.109 E72.28396
G1 X76.891 Y153.888 E74.06392
G1 X77.407 Y153.888 E74.09124
G1 X53.112 Y129.593 E75.90983
G1 X53.112 Y129.077 E75.93714
G1 X77.923 Y153.888 E77.79436
G1 X78.439 Y153.888 E77.82168
G1 X53.112 Y128.561 E79.71752
G1 X53.112 Y128.045 E79.74484
G1 X78.955 Y153.888 E81.67932
G1 X79.471 Y153.888 E81.70663
G1 X53.112 Y127.529 E83.67974
G1 X53.112 Y127.013 E83.70705
G1 X79.987 Y153.888 E85.71879
G1 X80.503 Y153.888 E85.74611
G1 X53.112 Y126.497 E87.79647
G1 X53.112 Y125.980 E87.82379
G1 X81.020 Y153.888 E89.91279
G1 X81.536 Y153.888 E89.94010
G1 X53.112 Y125.464 E92.06773
G1 X53.112 Y124.948 E92.09504
G1 X82.052 Y153.888 E94.26130
G1 X82.568 Y153.888 E94.28861
G1 X53.112 Y124.432 E96.49350
G1 X53.112 Y123.916 E96.52082
G1 X83.084 Y153.888 E98.76433
G1 X83.600 Y153.888 E98.79165
G1 X53.112 Y123.400 E101.07379
G1 X53.112 Y122.884 E101.10111
G1 X84.116 Y153.888 E103.42188
G1 X84.632 Y153.888 E103.44920
G1 X53.112 Y122.368 E105.80860
G1 X53.112 Y121.852 E105.83592
G1 X85.148 Y153.888 E108.23395
G1 X85.664 Y153.888 E108.26126
G1 X53.112 Y121.336 E110.69793
G1 X53.112 Y120.820 E110.72524
G1 X86.180 Y153.888 E113.20054
G1 X86.696 Y153.888 E113.22785
G1 X53.112 Y120.304 E115.74178
G1 X53.112 Y119.788 E115.76909
G1 X87.212 Y153.888 E118.32164
G1 X87.728 Y153.888 E118.34896
G1 X53.112 Y119.272 E120.94014
G1 X53.112 Y118.756 E120.96746
G1 X88.244 Y153.888 E123.59727
G1 X88.761 Y153.888 E123.62458
G1 X53.112 Y118.239 E126.29303
G1 X53.112 Y117.723 E126.32034
G1 X89.277 Y153.888 E129.02741
G1 X89.793 Y153.888 E129.05473
G1 X53.112 Y117.207 E131.80043
G1 X53.112 Y116.691 E131.82774
G1 X90.309 Y153.888 E134.61207
G1 X90.825 Y153.888 E134.63939
G1 X53.112 Y116.175 E137.46235
G1 X53.112 Y115.659 E137.48967
G1 X90.888 Y153.435 E140.31737
G1 X90.888 Y152.919 E140.34468
G1 X53.112 Y115.143 E143.17238
G1 X53.112 Y114.627 E143.19970
G1 X90.888 Y152.403 E146.02740
G1 X90.888 Y151.887 E146.05472
G1 X53.112 Y114.111 E148.88242
G1 X53.112 Y113.595 E148.90973
G1 X90.888 Y151.371 E151.73744
G1 X90.888 Y150.855 E151.76475
G1 X53.112 Y113.079 E154.59245
G1 X53.112 Y112.563 E154.61977
G1 X90.888 Y150.339 E157.44747
G1 X90.888 Y149.823 E157.47479
G1 X53.112 Y112.047 E160.30249
G1 X53.112 Y111.531 E160.32980
G1 X90.888 Y149.307 E163.15750
G1 X90.888 Y148.791 E163.18482
G1 X53.112 Y111.014 E166.01252
G1 X53.112 Y110.498 E166.03984
G1 X90.888 Y148.275 E168.86754
G1 X90.888 Y147.759 E168.89485
G1 X53.112 Y109.982 E171.72256
G1 X53.112 Y109.466 E171.74987
G1 X90.888 Y147.243 E174.57757
G1 X90.888 Y146.727 E174.60489
G1 X53.112 Y108.950 E177.43259
G1 X53.112 Y108.434 E177.45991
G1 X90.888 Y146.210 E180.28761
G1 X90.888 Y145.694 E180.31492
G1 X53.112 Y107.918 E183.14262
G1 X53.112 Y107.402 E183.16994
G1 X90.888 Y145.178 E185.99764
G1 X90.888 Y144.662 E186.02496
G1 X53.112 Y106.886 E188.85266
G1 X53.112 Y106.370 E188.87997
G1 X90.888 Y144.146 E191.70768
G1 X90.888 Y143.630 E191.73499
G1 X53.112 Y105.854 E194.56269
G1 X53.112 Y105.338 E194.59001
G1 X90.888 Y143.114 E197.41771
G1 X90.888 Y142.598 E197.44503
G1 X53.112 Y104.822 E200.27273
G1 X53.112 Y104.306 E200.30004
G1 X90.888 Y142.082 E203.12774
G1 X90.888 Y141.566 E203.15506
G1 X53.112 Y103.790 E205.98276
G1 X53.112 Y103.273 E206.01008
G1 X90.888 Y141.050 E208.83778
G1 X90.888 Y140.534 E208.86509
G1 X53.112 Y102.757 E211.69280
G1 X53.112 Y102.241 E211.72011
G1 X90.888 Y140.018 E214.54781
G1 X90.888 Y139.502 E214.57513
G1 X53.112 Y101.725 E217.40283
G1 X53.112 Y101.209 E217.43015
G1 X90.888 Y138.986 E220.25785
G1 X90.888 Y138.469 E220.28516
G1 X53.112 Y100.693 E223.11286
G1 X53.112 Y100.177 E223.14018
G1 X90.888 Y137.953 E225.96788
G1 X90.888 Y137.437 E225.99520
G1 X53.112 Y99.661 E228.82290
G1 X53.112 Y99.145 E228.85021
G1 X90.888 Y136.921 E231.67792
G1 X90.888 Y136.405 E231.70523
G1 X53.112 Y98.629 E234.53293
G1 X53.112 Y98.113 E234.56025
G1 X90.888 Y135.889 E237.38795
G1 X90.888 Y135.373 E237.41526
G1 X53.112 Y97.597 E240.24297
G1 X53.112 Y97.081 E240.27028
G1 X90.888 Y134.857 E243.09798
G1 X90.888 Y134.341 E243.12530
G1 X53.112 Y96.565 E245.95300
G1 X53.175 Y96.112 E245.97720
G1 X90.888 Y133.825 E248.80016
G1 X90.888 Y133.309 E248.82747
G1 X53.691 Y96.112 E251.61180
G1 X54.207 Y96.112 E251.63912
G1 X90.888 Y132.793 E254.38482
G1 X90.888 Y132.277 E254.41213
G1 X54.723 Y96.112 E257.11921
G1 X55.239 Y96.112 E257.14652
G1 X90.888 Y131.761 E259.81496
G1 X90.888 Y131.244 E259.84228
G1 X55.756 Y96.112 E262.47209
G1 X56.272 Y96.112 E262.49941
G1 X90.888 Y130.728 E265.09059
G1 X90.888 Y130.212 E265.11790
G1 X56.788 Y96.112 E267.67046
G1 X57.304 Y96.112 E267.69777
G1 X90.888 Y129.696 E270.21169
G1 X90.888 Y129.180 E270.23901
G1 X57.820 Y96.112 E272.71430
G1 X58.336 Y96.112 E272.74162
G1 X90.888 Y128.664 E275.17828
G1 X90.888 Y128.148 E275.20560
G1 X58.852 Y96.112 E277.60363
G1 X59.368 Y96.112 E277.63095
G1 X90.888 Y127.632 E279.99035
G1 X90.888 Y127.116 E280.01767
G1 X59.884 Y96.112 E282.33844
G1 X60.400 Y96.112 E282.36576
G1 X90.888 Y126.600 E284.64790
G1 X90.888 Y126.084 E284.67522
G1 X60.916 Y96.112 E286.91873
G1 X61.432 Y96.112 E286.94605
G1 X90.888 Y125.568 E289.15093
G1 X90.888 Y125.052 E289.17825
G1 X61.948 Y96.112 E291.34450
G1 X62.464 Y96.112 E291.37182
G1 X90.888 Y124.536 E293.49944
G1 X90.888 Y124.020 E293.52676
G1 X62.980 Y96.112 E295.61576
G1 X63.497 Y96.112 E295.64307
G1 X90.888 Y123.503 E297.69344
G1 X90.888 Y122.987 E297.72075
G1 X64.013 Y96.112 E299.73249
G1 X64.529 Y96.112 E299.75981
G1 X90.888 Y122.471 E301.73291
G1 X90.888 Y121.955 E301.76023
G1 X65.045 Y96.112 E303.69471
G1 X65.561 Y96.112 E303.72202
G1 X90.888 Y121.439 E305.61787
G1 X90.888 Y120.923 E305.64519
G1 X66.077 Y96.112 E307.50240
G1 X66.593 Y96.112 E307.52972
G1 X90.888 Y120.407 E309.34831
G1 X90.888 Y119.891 E309.37562
G1 X67.109 Y96.112 E311.15558
G1 X67.625 Y96.112 E311.18290
G1 X90.888 Y119.375 E312.92423
G1 X90.888 Y118.859 E312.95154
G1 X68.141 Y96.112 E314.65424
G1 X68.657 Y96.112 E314.68156
G1 X90.888 Y118.343 E316.34563
G1 X90.888 Y117.827 E316.37294
G1 X69.173 Y96.112 E317.99838
G1 X69.689 Y96.112 E318.02570
G1 X90.888 Y117.311 E319.61251
G1 X90.888 Y116.795 E319.63982
G1 X70.205 Y96.112 E321.18801
G1 X70.722 Y96.112 E321.21532
G1 X90.888 Y116.279 E322.72487
G1 X90.888 Y115.762 E322.75219
G1 X71.238 Y96.112 E324.22311
G1 X71.754 Y96.112 E324.25042
G1 X90.888 Y115.246 E325.68272
G1 X90.888 Y114.730 E325.71003
