; generated by Slic3r 1.1.7 on 2014-11-19 at 20:02:42

; perimeters extrusion width = 0.35mm
; infill extrusion width = 0.39mm
; solid infill extrusion width = 0.39mm
; top infill extrusion width = 0.39mm

G21 ; set units to millimeters
M107
;-- Slic3r Start G-Code for M2 starts --
;  Ed Nisley KE4NZU - March 2013
M140 S60; start bed heating
G90             ; absolute coordinates
G21             ; millimeters
M83             ; relative extrusion distance
M84             ; disable stepper current
G4 S3           ; allow Z stage to freefall to the floor
G28 X0          ; home X
G28 Y0          ; home Y
G28 Z0          ; home Z
G1 X95 Y5 F30000    ; set up for prime near front edge
G1 Z0.0 F2500   ; plug extruder on plate
G1 E10 F300     ; prime to get pressure
G1 Z5 F2500     ; rise above blob
G1 Y10 F30000 ; move away
G1 Z0.0 F2500   ; dab nozzle to remove outer snot
G4 P1           ; pause to clear
G1 Z0.1         ; clear bed for travel
M190 S60; wait for bed to finish heating
M109 S195     ; set extruder temperature and wait
;-- Slic3r Start G-Code ends --
G90 ; use absolute coordinates
G92 E0
M82 ; use absolute distances for extrusion
G1 F600.000 E-1.00000
G1 Z1.100 F18000.000
G92 E0
G1 X17.658 Y48.598 F18000.000
G1 Z0.300 F18000.000
G1 E1.00000 F600.000
G1 X19.052 Y48.269 E1.06252 F1440.000
G1 X20.503 Y48.187 E1.12598
G1 X21.521 Y48.277 E1.17056 F1440.000
G1 X168.455 Y72.217 E7.66939
G1 X170.452 Y72.944 E7.76220
G1 X172.128 Y74.463 E7.86089
G1 X179.000 Y83.793 E8.36674
G1 X179.919 Y85.710 E8.45955
G1 X180.110 Y87.173 E8.52397
G1 X180.110 Y153.243 E11.40819
G1 X179.714 Y155.332 E11.50100
G1 X178.999 Y156.624 E11.56547
G1 X172.127 Y165.950 E12.07118
G1 X170.569 Y167.397 E12.16399
G1 X169.391 Y167.959 E12.22096
G1 X71.608 Y201.543 E16.73433
G1 X70.201 Y201.787 E16.79666
G1 X68.726 Y201.780 E16.86103
G1 X67.369 Y201.535 E16.92122
G1 X66.000 Y201.036 E16.98484
G1 X64.759 Y200.315 E17.04751
G1 X63.668 Y199.395 E17.10980
G1 X62.747 Y198.295 E17.17242
G1 X62.244 Y197.490 E17.21385
G1 X59.922 Y193.133 E17.42940
G1 X59.653 Y192.496 E17.45957
G1 X10.313 Y62.916 E23.51242
G1 X9.981 Y61.514 E23.57535
G1 X9.900 Y60.070 E23.63844
G1 X10.074 Y58.630 E23.70180
G1 X10.469 Y57.314 E23.76177
G1 X10.874 Y56.427 E23.80432
G1 X13.249 Y52.061 E24.02129
G1 X14.099 Y50.930 E24.08307
G1 X15.137 Y49.954 E24.14524
G1 X16.344 Y49.162 E24.20825
G1 X17.610 Y48.619 E24.26841
G1 X17.759 Y48.933 F18000.000
G1 X19.093 Y48.616 E24.32828 F1440.000
G1 X20.483 Y48.537 E24.38904
G1 X21.464 Y48.623 E24.43205 F1440.000
G1 X168.398 Y72.563 E30.93088
G1 X170.329 Y73.279 E31.02077
G1 X171.846 Y74.670 E31.11062
G1 X178.718 Y84.000 E31.61647
G1 X179.597 Y85.862 E31.70636
G1 X179.760 Y87.173 E31.76402
G1 X179.760 Y153.243 E34.64824
G1 X179.364 Y155.264 E34.73813
G1 X178.717 Y156.417 E34.79584
G1 X171.845 Y165.743 E35.30154
G1 X170.327 Y167.134 E35.39143
G1 X169.277 Y167.628 E35.44210
G1 X71.527 Y201.202 E39.95395
G1 X70.180 Y201.438 E40.01364
G1 X68.769 Y201.433 E40.07524
G1 X67.469 Y201.199 E40.13292
G1 X66.157 Y200.723 E40.19381
G1 X64.968 Y200.034 E40.25382
G1 X63.923 Y199.155 E40.31346
G1 X63.040 Y198.102 E40.37344
G1 X62.552 Y197.324 E40.41351
G1 X60.243 Y192.994 E40.62773
G1 X59.980 Y192.371 E40.65724
G1 X10.648 Y62.815 E46.70901
G1 X10.329 Y61.473 E46.76926
G1 X10.249 Y60.091 E46.82967
G1 X10.414 Y58.711 E46.89032
G1 X10.791 Y57.450 E46.94780
G1 X11.182 Y56.593 E46.98891
G1 X13.541 Y52.255 E47.20447
G1 X14.354 Y51.170 E47.26364
G1 X15.346 Y50.235 E47.32318
G1 X16.501 Y49.475 E47.38351
G1 X17.711 Y48.954 E47.44101
G1 F600.000 E46.44101
G1 Z1.100 F18000.000
G92 E0
G1 X130.446 Y82.658 F18000.000
G1 Z0.300 F18000.000
G1 E1.00000 F600.000
G1 X130.625 Y83.090 E1.02042 F1440.000
G1 X144.452 Y83.090 E1.62398
G1 X144.631 Y82.658 E1.64440
G1 X141.188 Y79.215 E1.85692
G1 X140.895 Y78.508 E1.89036
G1 X140.895 Y77.046 E1.95419
G1 X142.023 Y75.918 E2.02380
G1 X168.335 Y75.918 E3.17246
G1 X169.463 Y77.046 E3.24207
G1 X169.463 Y88.786 E3.75457
G1 X169.895 Y88.965 E3.77499
G1 X173.959 Y84.902 E4.02582
G1 X176.335 Y85.887 E4.13811
G1 X176.335 Y111.799 E5.26928
G1 X173.958 Y112.784 E5.38158
G1 X169.895 Y108.720 E5.63243
G1 X169.463 Y108.899 E5.65285
G1 X169.463 Y131.514 E6.64005
G1 X169.895 Y131.693 E6.66046
G1 X173.959 Y127.630 E6.91129
G1 X176.335 Y128.615 E7.02358
G1 X176.335 Y154.529 E8.15485
G1 X173.958 Y155.514 E8.26716
G1 X169.895 Y151.450 E8.51802
G1 X169.463 Y151.629 E8.53844
G1 X169.463 Y163.366 E9.05084
G1 X168.335 Y164.494 E9.12046
G1 X164.820 Y164.494 E9.27394
G1 X163.478 Y164.529 E9.33252
G1 X162.125 Y164.576 E9.39160
G1 X159.414 Y164.709 E9.51011
G1 X156.720 Y164.896 E9.62801
G1 X154.018 Y165.137 E9.74641
G1 X151.330 Y165.430 E9.86448
G1 X148.640 Y165.778 E9.98286
G1 X145.964 Y166.178 E10.10097
G1 X143.293 Y166.632 E10.21923
G1 X139.308 Y167.406 E10.39646
G1 X136.663 Y167.993 E10.51475
G1 X134.030 Y168.628 E10.63295
G1 X131.412 Y169.316 E10.75113
G1 X128.807 Y170.055 E10.86936
G1 X126.216 Y170.847 E10.98762
G1 X123.643 Y171.688 E11.10577
G1 X122.360 Y172.129 E11.16501
G1 X119.813 Y173.046 E11.28317
G1 X117.284 Y174.014 E11.40138
G1 X116.028 Y174.517 E11.46044
G1 X114.775 Y175.032 E11.51960
G1 X112.285 Y176.099 E11.63784
G1 X108.595 Y177.791 E11.81507
G1 X107.387 Y178.375 E11.87363
G1 X102.538 Y180.864 E12.11157
G1 X71.581 Y197.533 E13.64644
G1 X70.985 Y197.795 E13.67483
G1 X70.823 Y197.849 E13.68229
G1 X70.062 Y198.014 E13.71628
G1 X69.275 Y198.044 E13.75067
G1 X68.516 Y197.937 E13.78413
G1 X67.772 Y197.702 E13.81820
G1 X67.083 Y197.339 E13.85220
G1 X66.470 Y196.863 E13.88606
G1 X65.945 Y196.287 E13.92011
G1 X65.536 Y195.641 E13.95348
G1 X63.441 Y191.751 E14.14635
G1 X63.179 Y191.152 E14.17490
G1 X63.126 Y190.991 E14.18228
G1 X62.961 Y190.231 E14.21623
G1 X62.930 Y189.452 E14.25029
G1 X63.002 Y188.843 E14.27705
G1 X63.213 Y188.095 E14.31098
G1 X63.547 Y187.397 E14.34471
G1 X63.637 Y187.251 E14.35220
G1 X64.117 Y186.633 E14.38641
G1 X64.690 Y186.115 E14.42009
G1 X65.238 Y185.758 E14.44863
G1 X96.361 Y168.999 E15.99174
G1 X97.697 Y168.241 E16.05883
G1 X98.965 Y167.449 E16.12409
G1 X100.213 Y166.592 E16.19016
G1 X101.400 Y165.699 E16.25501
G1 X101.986 Y165.227 E16.28785
G1 X103.129 Y164.246 E16.35361
G1 X103.682 Y163.738 E16.38641
G1 X104.760 Y162.686 E16.45214
G1 X105.785 Y161.594 E16.51752
G1 X106.281 Y161.029 E16.55035
G1 X107.238 Y159.867 E16.61606
G1 X108.146 Y158.667 E16.68175
G1 X108.993 Y157.434 E16.74704
G1 X109.402 Y156.797 E16.78007
G1 X110.173 Y155.506 E16.84572
G1 X110.887 Y154.185 E16.91127
G1 X111.224 Y153.511 E16.94419
G1 X111.849 Y152.149 E17.00961
G1 X112.418 Y150.757 E17.07527
G1 X112.678 Y150.053 E17.10802
G1 X112.925 Y149.340 E17.14094
G1 X113.371 Y147.909 E17.20637
G1 X113.757 Y146.453 E17.27215
G1 X113.925 Y145.725 E17.30474
G1 X114.213 Y144.249 E17.37042
G1 X114.335 Y143.503 E17.40337
G1 X114.528 Y142.019 E17.46874
G1 X114.657 Y140.519 E17.53443
G1 X114.697 Y139.768 E17.56725
G1 X114.721 Y139.002 E17.60073
G1 X114.721 Y137.514 E17.66568
G1 X114.657 Y136.009 E17.73146
G1 X114.600 Y135.258 E17.76431
G1 X114.441 Y133.769 E17.82971
G1 X114.335 Y133.022 E17.86261
G1 X114.077 Y131.542 E17.92822
G1 X113.758 Y130.079 E17.99360
G1 X113.371 Y128.619 E18.05952
G1 X112.926 Y127.189 E18.12489
G1 X112.678 Y126.477 E18.15780
G1 X112.141 Y125.075 E18.22335
G1 X111.546 Y123.695 E18.28894
G1 X110.886 Y122.339 E18.35481
G1 X110.174 Y121.022 E18.42013
G1 X109.401 Y119.730 E18.48588
G1 X108.994 Y119.095 E18.51880
G1 X108.143 Y117.857 E18.58439
G1 X107.238 Y116.661 E18.64983
G1 X106.280 Y115.496 E18.71569
G1 X105.279 Y114.385 E18.78094
G1 X104.225 Y113.308 E18.84676
G1 X103.130 Y112.282 E18.91225
G1 X101.990 Y111.303 E18.97785
G1 X100.807 Y110.374 E19.04353
G1 X100.202 Y109.928 E19.07633
G1 X98.959 Y109.077 E19.14211
G1 X97.689 Y108.282 E19.20747
G1 X96.373 Y107.537 E19.27351
G1 X15.972 Y64.241 E23.25986
G1 X15.425 Y63.883 E23.28843
G1 X14.855 Y63.366 E23.32201
G1 X14.740 Y63.238 E23.32952
G1 X14.285 Y62.602 E23.36365
G1 X13.951 Y61.905 E23.39740
G1 X13.740 Y61.155 E23.43141
G1 X13.668 Y60.546 E23.45815
G1 X13.699 Y59.765 E23.49230
G1 X13.724 Y59.596 E23.49976
G1 X13.916 Y58.855 E23.53317
G1 X14.179 Y58.252 E23.56188
G1 X16.326 Y54.260 E23.75973
G1 X16.685 Y53.711 E23.78840
G1 X17.205 Y53.139 E23.82214
G1 X17.820 Y52.662 E23.85610
G1 X17.964 Y52.573 E23.86349
G1 X18.664 Y52.237 E23.89738
G1 X19.414 Y52.027 E23.93139
G1 X20.188 Y51.950 E23.96535
G1 X20.800 Y51.986 E23.99212
G1 X21.561 Y52.151 E24.02612
G1 X22.245 Y52.431 E24.05836
G1 X74.009 Y80.301 E26.62476
G1 X74.724 Y80.595 E26.65850
G1 X76.303 Y81.173 E26.73193
G1 X77.101 Y81.435 E26.76861
G1 X78.719 Y81.903 E26.84210
G1 X79.537 Y82.109 E26.87895
G1 X81.178 Y82.464 E26.95223
G1 X82.851 Y82.743 E27.02626
G1 X84.515 Y82.943 E27.09942
G1 X85.351 Y83.013 E27.13606
G1 X87.030 Y83.096 E27.20944
G1 X88.721 Y83.102 E27.28327
G1 X90.402 Y83.030 E27.35672
G1 X92.077 Y82.880 E27.43012
G1 X93.742 Y82.651 E27.50347
G1 X94.574 Y82.506 E27.54037
G1 X96.217 Y82.163 E27.61364
G1 X97.855 Y81.742 E27.68745
G1 X99.462 Y81.246 E27.76087
G1 X101.043 Y80.678 E27.83422
G1 X101.828 Y80.363 E27.87111
G1 X103.368 Y79.685 E27.94460
G1 X104.126 Y79.321 E27.98130
G1 X105.615 Y78.538 E28.05473
G1 X106.347 Y78.119 E28.09155
G1 X107.779 Y77.230 E28.16514
G1 X109.428 Y76.097 E28.25249
G1 X109.995 Y75.918 E28.27842
G1 X133.053 Y75.918 E29.28501
G1 X134.181 Y77.046 E29.35463
G1 X134.181 Y78.508 E29.41846
G1 X133.888 Y79.215 E29.45188
G1 X130.483 Y82.621 E29.66210
G1 X129.602 Y83.008 F18000.000
G1 X129.781 Y83.440 E29.68252 F1440.000
G1 X145.297 Y83.440 E30.35985
G1 X145.476 Y83.008 E30.38027
G1 X141.485 Y79.017 E30.62664
G1 X141.245 Y78.438 E30.65399
G1 X141.245 Y77.191 E30.70845
G1 X142.168 Y76.268 E30.76541
G1 X168.190 Y76.268 E31.90141
G1 X169.113 Y77.191 E31.95837
G1 X169.113 Y89.630 E32.50142
G1 X169.545 Y89.809 E32.52183
G1 X174.041 Y85.315 E32.79933
G1 X175.985 Y86.121 E32.89120
G1 X175.985 Y111.565 E34.00196
G1 X174.041 Y112.371 E34.09385
G1 X169.545 Y107.875 E34.37137
G1 X169.113 Y108.054 E34.39179
G1 X169.113 Y132.358 E35.45275
G1 X169.545 Y132.537 E35.47317
G1 X174.041 Y128.043 E35.75067
G1 X175.985 Y128.849 E35.84254
G1 X175.985 Y154.295 E36.95339
G1 X174.040 Y155.101 E37.04528
G1 X169.545 Y150.604 E37.32283
G1 X169.113 Y150.783 E37.34325
G1 X169.113 Y163.221 E37.88621
G1 X168.190 Y164.144 E37.94317
G1 X164.810 Y164.144 E38.09072
G1 X162.113 Y164.227 E38.20852
G1 X159.392 Y164.360 E38.32747
G1 X156.692 Y164.547 E38.44561
G1 X153.984 Y164.789 E38.56429
G1 X151.288 Y165.083 E38.68268
G1 X148.592 Y165.431 E38.80135
G1 X145.909 Y165.832 E38.91977
G1 X143.231 Y166.287 E39.03834
G1 X139.236 Y167.064 E39.21602
G1 X136.584 Y167.652 E39.33461
G1 X133.945 Y168.288 E39.45310
G1 X131.318 Y168.979 E39.57165
G1 X128.708 Y169.720 E39.69012
G1 X126.112 Y170.512 E39.80862
G1 X123.531 Y171.357 E39.92714
G1 X122.244 Y171.798 E39.98653
G1 X119.693 Y172.717 E40.10490
G1 X117.156 Y173.688 E40.22349
G1 X115.897 Y174.192 E40.28271
G1 X114.640 Y174.709 E40.34203
G1 X112.146 Y175.778 E40.46047
G1 X108.442 Y177.475 E40.63834
G1 X107.231 Y178.062 E40.69708
G1 X102.375 Y180.554 E40.93535
G1 X71.421 Y197.222 E42.47005
G1 X70.728 Y197.512 E42.50287
G1 X70.027 Y197.665 E42.53420
G1 X69.302 Y197.695 E42.56585
G1 X68.602 Y197.598 E42.59673
G1 X67.915 Y197.382 E42.62813
G1 X67.280 Y197.049 E42.65945
G1 X66.714 Y196.612 E42.69066
G1 X66.229 Y196.081 E42.72205
G1 X65.844 Y195.475 E42.75340
G1 X63.753 Y191.592 E42.94594
G1 X63.506 Y191.027 E42.97282
G1 X63.310 Y190.195 E43.01014
G1 X63.280 Y189.477 E43.04151
G1 X63.348 Y188.899 E43.06693
G1 X63.544 Y188.210 E43.09818
G1 X63.853 Y187.568 E43.12930
G1 X64.368 Y186.877 E43.16691
G1 X64.895 Y186.399 E43.19798
G1 X65.410 Y186.063 E43.22485
G1 X96.530 Y169.305 E44.76778
G1 X97.875 Y168.542 E44.83529
G1 X99.157 Y167.742 E44.90127
G1 X100.417 Y166.876 E44.96802
G1 X101.617 Y165.974 E45.03352
G1 X102.208 Y165.497 E45.06669
G1 X103.363 Y164.506 E45.13312
G1 X103.922 Y163.993 E45.16625
G1 X105.010 Y162.932 E45.23260
G1 X106.045 Y161.828 E45.29866
G1 X106.547 Y161.257 E45.33182
G1 X107.513 Y160.084 E45.39818
G1 X108.430 Y158.872 E45.46453
G1 X109.286 Y157.627 E45.53049
G1 X109.698 Y156.983 E45.56384
G1 X110.477 Y155.679 E45.63015
G1 X111.198 Y154.345 E45.69634
G1 X111.539 Y153.664 E45.72959
G1 X112.170 Y152.287 E45.79571
G1 X112.745 Y150.882 E45.86198
G1 X113.008 Y150.171 E45.89510
G1 X113.257 Y149.451 E45.92833
G1 X113.708 Y148.006 E45.99442
G1 X114.097 Y146.535 E46.06083
G1 X114.267 Y145.800 E46.09379
G1 X114.558 Y144.309 E46.16011
G1 X114.681 Y143.556 E46.19338
G1 X114.876 Y142.056 E46.25944
G1 X115.006 Y140.542 E46.32577
G1 X115.046 Y139.783 E46.35893
G1 X115.071 Y139.010 E46.39273
G1 X115.071 Y137.507 E46.45833
G1 X115.006 Y135.986 E46.52477
G1 X114.949 Y135.228 E46.55795
G1 X114.788 Y133.724 E46.62401
G1 X114.681 Y132.970 E46.65726
G1 X114.421 Y131.475 E46.72349
G1 X114.098 Y129.996 E46.78956
G1 X113.708 Y128.522 E46.85612
G1 X113.257 Y127.078 E46.92216
G1 X113.008 Y126.359 E46.95538
G1 X112.465 Y124.942 E47.02161
G1 X111.864 Y123.549 E47.08785
G1 X111.197 Y122.179 E47.15436
G1 X110.478 Y120.849 E47.22037
G1 X109.698 Y119.544 E47.28674
G1 X109.287 Y118.902 E47.32001
G1 X108.427 Y117.652 E47.38625
G1 X107.513 Y116.444 E47.45237
G1 X106.546 Y115.268 E47.51885
G1 X105.534 Y114.146 E47.58481
G1 X104.469 Y113.058 E47.65125
G1 X103.364 Y112.021 E47.71740
G1 X102.213 Y111.032 E47.78367
G1 X101.018 Y110.094 E47.84999
G1 X100.406 Y109.644 E47.88315
G1 X99.151 Y108.784 E47.94954
G1 X97.868 Y107.982 E48.01560
G1 X96.540 Y107.230 E48.08222
G1 X16.145 Y63.937 E52.06829
G1 X15.630 Y63.599 E52.09517
G1 X15.012 Y63.017 E52.13226
G1 X14.591 Y62.431 E52.16372
G1 X14.282 Y61.789 E52.19484
G1 X14.086 Y61.098 E52.22618
G1 X14.018 Y60.521 E52.25157
G1 X14.068 Y59.663 E52.28910
G1 X14.244 Y58.978 E52.31997
G1 X14.491 Y58.411 E52.34695
G1 X16.630 Y54.433 E52.54412
G1 X16.969 Y53.916 E52.57108
G1 X17.449 Y53.390 E52.60220
G1 X18.135 Y52.879 E52.63953
G1 X18.779 Y52.568 E52.67075
G1 X19.470 Y52.373 E52.70211
G1 X20.183 Y52.301 E52.73340
G1 X20.765 Y52.335 E52.75881
G1 X21.466 Y52.488 E52.79015
G1 X22.099 Y52.749 E52.82005
G1 X73.859 Y80.618 E55.38628
G1 X74.595 Y80.920 E55.42103
G1 X76.190 Y81.505 E55.49517
G1 X76.996 Y81.769 E55.53221
G1 X78.629 Y82.241 E55.60641
G1 X79.456 Y82.450 E55.64361
G1 X81.112 Y82.808 E55.71760
G1 X82.801 Y83.089 E55.79234
G1 X84.481 Y83.291 E55.86622
G1 X85.326 Y83.362 E55.90321
G1 X87.021 Y83.446 E55.97730
G1 X88.728 Y83.452 E56.05182
G1 X90.425 Y83.379 E56.12599
G1 X92.116 Y83.228 E56.20011
G1 X93.797 Y82.996 E56.27418
G1 X94.638 Y82.850 E56.31142
G1 X96.297 Y82.504 E56.38542
G1 X97.950 Y82.079 E56.45992
G1 X99.573 Y81.578 E56.53406
G1 X101.169 Y81.004 E56.60811
G1 X101.961 Y80.687 E56.64536
G1 X103.516 Y80.002 E56.71953
G1 X104.282 Y79.635 E56.75659
G1 X105.785 Y78.843 E56.83074
G1 X106.525 Y78.421 E56.86794
G1 X107.970 Y77.523 E56.94221
G1 X109.585 Y76.415 E57.02775
G1 X110.049 Y76.268 E57.04897
G1 X132.908 Y76.268 E58.04687
G1 X133.831 Y77.191 E58.10383
G1 X133.831 Y78.438 E58.15829
G1 X133.591 Y79.017 E58.18564
G1 X129.639 Y82.971 E58.42970
G1 X128.757 Y83.358 F18000.000
G1 X128.936 Y83.790 E58.45011 F1440.000
G1 X146.141 Y83.790 E59.20121
G1 X146.320 Y83.358 E59.22163
G1 X141.782 Y78.819 E59.50184
G1 X141.595 Y78.369 E59.52312
G1 X141.595 Y77.336 E59.56822
G1 X142.313 Y76.618 E59.61252
G1 X168.045 Y76.618 E60.73586
G1 X168.763 Y77.336 E60.78016
G1 X168.763 Y90.475 E61.35376
G1 X169.195 Y90.654 E61.37417
G1 X174.123 Y85.728 E61.67834
G1 X175.635 Y86.355 E61.74980
G1 X175.635 Y111.332 E62.84014
G1 X174.123 Y111.958 E62.91160
G1 X169.195 Y107.031 E63.21581
G1 X168.763 Y107.210 E63.23622
G1 X168.763 Y133.203 E64.37095
G1 X169.195 Y133.382 E64.39137
G1 X174.123 Y128.456 E64.69554
G1 X175.635 Y129.083 E64.76700
G1 X175.635 Y154.062 E65.85743
G1 X174.122 Y154.688 E65.92890
G1 X169.195 Y149.759 E66.23313
G1 X168.763 Y149.938 E66.25355
G1 X168.763 Y163.076 E66.82708
G1 X168.045 Y163.794 E66.87138
G1 X164.806 Y163.794 E67.01280
G1 X162.099 Y163.877 E67.13104
G1 X159.372 Y164.010 E67.25022
