; generated by Slic3r 1.1.7 on 2014-11-19 at 08:44:39

; perimeters extrusion width = 0.35mm
; infill extrusion width = 0.39mm
; solid infill extrusion width = 0.39mm
; top infill extrusion width = 0.39mm

G21 ; set units to millimeters
M107
;-- Slic3r Start G-Code for M2 starts --
;  Ed Nisley KE4NZU - March 2013
M140 S60; start bed heating
G90             ; absolute coordinates
G21             ; millimeters
M83             ; relative extrusion distance
M84             ; disable stepper current
G4 S3           ; allow Z stage to freefall to the floor
G28 X0          ; home X
G28 Y0          ; home Y
G28 Z0          ; home Z
G1 X95 Y5 F30000    ; set up for prime near front edge
G1 Z0.0 F2500   ; plug extruder on plate
G1 E10 F300     ; prime to get pressure
G1 Z5 F2500     ; rise above blob
G1 Y10 F30000 ; move away
G1 Z0.0 F2500   ; dab nozzle to remove outer snot
G4 P1           ; pause to clear
G1 Z0.1         ; clear bed for travel
M190 S60; wait for bed to finish heating
M109 S195     ; set extruder temperature and wait
;-- Slic3r Start G-Code ends --
G90 ; use absolute coordinates
G92 E0
M82 ; use absolute distances for extrusion
G1 F600.000 E-1.00000
G1 Z1.100 F18000.000
G92 E0
G1 X19.139 Y50.522 F18000.000
G1 Z0.300 F18000.000
G1 E1.00000 F600.000
G1 X23.782 Y48.829 E1.21573 F1440.000
G1 X25.187 Y48.535 E1.27839
G1 X26.152 Y48.470 E1.32063
G1 X164.373 Y48.494 E7.35450
G1 X165.791 Y48.713 E7.41715 F1440.000
G1 X166.692 Y48.981 E7.45817
G1 X171.319 Y50.714 E7.67390
G1 X172.578 Y51.405 E7.73656
G1 X173.697 Y52.303 E7.79920
G1 X174.644 Y53.382 E7.86185
G1 X175.388 Y54.609 E7.92451
G1 X175.909 Y55.946 E7.98715
G1 X176.189 Y57.354 E8.04981
G1 X176.220 Y58.788 E8.11245
G1 X176.149 Y59.496 E8.14349
G1 X157.891 Y189.750 E13.88519
G1 X157.209 Y191.763 E13.97800
G1 X155.836 Y193.387 E14.07081
G1 X154.547 Y194.174 E14.13673
G1 X138.972 Y201.045 E14.87987
G1 X136.671 Y201.530 E14.98251
G1 X53.329 Y201.530 E18.62072
G1 X51.028 Y201.045 E18.72336
G1 X35.453 Y194.174 E19.46651
G1 X33.702 Y192.968 E19.55932
G1 X32.515 Y191.204 E19.65213
G1 X32.109 Y189.750 E19.71805
G1 X13.820 Y59.229 E25.47145
G1 X13.780 Y58.793 E25.49057
G1 X13.775 Y57.795 E25.53415
G1 X13.979 Y56.374 E25.59680
G1 X14.426 Y55.011 E25.65945
G1 X15.104 Y53.746 E25.72210
G1 X15.991 Y52.617 E25.78476
G1 X17.061 Y51.660 E25.84740
G1 X18.280 Y50.904 E25.91005
G1 X19.091 Y50.543 E25.94879
G1 X19.260 Y50.850 F18000.000
G1 X23.874 Y49.167 E26.16318 F1440.000
G1 X25.219 Y48.884 E26.22318
G1 X26.152 Y48.820 E26.26402
G1 X164.340 Y48.843 E32.29648
G1 X165.699 Y49.050 E32.35647 F1440.000
G1 X166.570 Y49.309 E32.39616
G1 X171.170 Y51.031 E32.61055
G1 X172.376 Y51.690 E32.67055
G1 X173.449 Y52.549 E32.73053
G1 X174.356 Y53.581 E32.79052
G1 X175.071 Y54.755 E32.85051
G1 X175.570 Y56.035 E32.91049
G1 X175.840 Y57.382 E32.97049
G1 X175.872 Y58.756 E33.03047
G1 X175.802 Y59.447 E33.06079
G1 X157.545 Y189.701 E38.80249
G1 X156.872 Y191.647 E38.89238
G1 X155.514 Y193.195 E38.98227
G1 X154.406 Y193.854 E39.03852
G1 X138.830 Y200.725 E39.78167
G1 X136.671 Y201.180 E39.87801
G1 X53.329 Y201.180 E43.51622
G1 X51.170 Y200.725 E43.61255
G1 X35.594 Y193.854 E44.35570
G1 X33.905 Y192.676 E44.44559
G1 X32.787 Y190.947 E44.53548
G1 X32.455 Y189.701 E44.59173
G1 X14.169 Y59.197 E50.34442
G1 X14.129 Y58.761 E50.36353
G1 X14.123 Y57.824 E50.40446
G1 X14.317 Y56.463 E50.46444
G1 X14.744 Y55.157 E50.52444
G1 X15.392 Y53.945 E50.58442
G1 X16.240 Y52.864 E50.64441
G1 X17.263 Y51.946 E50.70440
G1 X18.430 Y51.220 E50.76438
G1 X19.212 Y50.872 E50.80179
G1 F600.000 E49.80179
G1 Z1.100 F18000.000
G92 E0
G1 X54.942 Y190.884 F18000.000
G1 Z0.300 F18000.000
G1 E1.00000 F600.000
G1 X36.360 Y190.884 E1.81114 F1440.000
G1 X35.490 Y188.237 E1.93278
G1 X37.305 Y186.898 E2.03124
G1 X37.970 Y186.382 E2.06799
G1 X39.268 Y185.303 E2.14167
G1 X40.508 Y184.171 E2.21499
G1 X41.113 Y183.579 E2.25192
G1 X42.271 Y182.363 E2.32524
G1 X42.833 Y181.730 E2.36217
G1 X43.904 Y180.436 E2.43549
G1 X44.420 Y179.766 E2.47242
G1 X45.398 Y178.401 E2.54574
G1 X45.866 Y177.696 E2.58267
G1 X46.316 Y176.984 E2.61942
G1 X47.159 Y175.542 E2.69235
G1 X47.564 Y174.789 E2.72968
G1 X48.310 Y173.280 E2.80316
G1 X48.657 Y172.513 E2.83992
G1 X49.291 Y170.967 E2.91285
G1 X49.588 Y170.165 E2.95018
G1 X50.117 Y168.567 E3.02366
G1 X50.570 Y166.949 E3.09700
G1 X50.770 Y166.128 E3.13391
G1 X51.106 Y164.495 E3.20667
G1 X51.251 Y163.648 E3.24418
G1 X51.473 Y161.997 E3.31692
G1 X51.559 Y161.142 E3.35443
G1 X51.666 Y159.479 E3.42717
G1 X51.691 Y158.620 E3.46468
G1 X51.682 Y156.954 E3.53742
G1 X51.647 Y156.095 E3.57493
G1 X51.521 Y154.421 E3.64823
G1 X51.428 Y153.580 E3.68516
G1 X51.316 Y152.746 E3.72191
G1 X51.038 Y151.103 E3.79467
G1 X50.676 Y149.441 E3.86891
G1 X50.468 Y148.625 E3.90566
G1 X50.000 Y147.025 E3.97841
G1 X49.446 Y145.409 E4.05301
G1 X17.793 Y59.759 E8.03911
G1 X17.617 Y59.131 E8.06761
G1 X17.531 Y58.357 E8.10161
G1 X17.580 Y57.580 E8.13557
G1 X17.609 Y57.415 E8.14290
G1 X17.820 Y56.665 E8.17689
G1 X18.076 Y56.111 E8.20356
G1 X18.507 Y55.463 E8.23754
G1 X18.615 Y55.333 E8.24488
G1 X19.173 Y54.791 E8.27886
G1 X19.671 Y54.438 E8.30552
G1 X20.408 Y54.077 E8.34133
G1 X24.656 Y52.507 E8.53904
G1 X25.285 Y52.332 E8.56753
G1 X26.059 Y52.246 E8.60152
G1 X26.835 Y52.295 E8.63550
G1 X27.001 Y52.323 E8.64283
G1 X27.750 Y52.535 E8.67681
G1 X28.305 Y52.791 E8.70348
G1 X28.953 Y53.222 E8.73746
G1 X29.082 Y53.329 E8.74480
G1 X29.517 Y53.759 E8.77147
G1 X29.978 Y54.386 E8.80545
G1 X30.338 Y55.123 E8.84126
G1 X50.720 Y110.273 E11.40793
G1 X51.581 Y112.439 E11.50969
G1 X52.040 Y113.481 E11.55937
G1 X52.528 Y114.520 E11.60951
G1 X53.043 Y115.552 E11.65983
G1 X53.580 Y116.562 E11.70979
G1 X54.144 Y117.567 E11.76010
G1 X54.739 Y118.566 E11.81083
G1 X55.340 Y119.524 E11.86020
G1 X55.977 Y120.485 E11.91053
G1 X56.635 Y121.426 E11.96067
G1 X57.315 Y122.352 E12.01081
G1 X58.015 Y123.257 E12.06076
G1 X58.739 Y124.148 E12.11090
G1 X59.488 Y125.025 E12.16122
G1 X60.255 Y125.880 E12.21137
G1 X61.043 Y126.716 E12.26151
G1 X61.850 Y127.532 E12.31163
G1 X62.691 Y128.341 E12.36255
G1 X63.524 Y129.105 E12.41192
G1 X64.386 Y129.858 E12.46188
G1 X65.269 Y130.592 E12.51202
G1 X66.170 Y131.305 E12.56216
G1 X67.088 Y131.996 E12.61230
G1 X68.022 Y132.663 E12.66243
G1 X68.976 Y133.311 E12.71276
G1 X69.942 Y133.932 E12.76289
G1 X70.934 Y134.537 E12.81362
G1 X71.918 Y135.104 E12.86318
G1 X72.926 Y135.654 E12.91332
G1 X73.948 Y136.178 E12.96346
G1 X74.978 Y136.676 E13.01341
G1 X76.024 Y137.151 E13.06355
G1 X77.081 Y137.600 E13.11369
G1 X78.149 Y138.023 E13.16383
G1 X79.227 Y138.420 E13.21395
G1 X80.331 Y138.796 E13.26488
G1 X81.414 Y139.136 E13.31443
G1 X82.518 Y139.453 E13.36457
G1 X83.629 Y139.743 E13.41471
G1 X84.743 Y140.006 E13.46467
G1 X85.871 Y140.242 E13.51499
G1 X86.997 Y140.450 E13.56494
G1 X88.135 Y140.632 E13.61527
G1 X89.273 Y140.785 E13.66541
G1 X90.415 Y140.910 E13.71555
G1 X91.559 Y141.008 E13.76567
G1 X92.719 Y141.078 E13.81641
G1 X93.843 Y141.119 E13.86550
G1 X96.163 Y141.119 E13.96678
G1 X97.312 Y141.077 E14.01696
G1 X98.441 Y141.008 E14.06633
G1 X99.585 Y140.910 E14.11647
G1 X100.727 Y140.785 E14.16661
G1 X101.869 Y140.631 E14.21693
G1 X103.003 Y140.450 E14.26707
G1 X104.133 Y140.241 E14.31721
G1 X105.257 Y140.006 E14.36734
G1 X106.388 Y139.739 E14.41807
G1 X107.482 Y139.453 E14.46744
G1 X108.586 Y139.136 E14.51758
G1 X109.686 Y138.791 E14.56791
G1 X110.773 Y138.420 E14.61805
G1 X111.851 Y138.023 E14.66819
G1 X112.919 Y137.600 E14.71833
G1 X113.976 Y137.151 E14.76847
G1 X115.022 Y136.676 E14.81861
G1 X116.056 Y136.176 E14.86875
G1 X117.074 Y135.654 E14.91870
G1 X118.082 Y135.104 E14.96882
G1 X119.092 Y134.521 E15.01975
G1 X120.062 Y133.930 E15.06930
G1 X121.012 Y133.318 E15.11867
G1 X121.978 Y132.663 E15.16960
G1 X122.912 Y131.996 E15.21972
G1 X123.827 Y131.308 E15.26967
G1 X124.727 Y130.595 E15.31981
G1 X125.611 Y129.861 E15.36995
G1 X126.476 Y129.105 E15.42009
G1 X127.325 Y128.326 E15.47042
G1 X128.150 Y127.532 E15.52037
G1 X128.957 Y126.716 E15.57051
G1 X129.745 Y125.880 E15.62065
G1 X130.512 Y125.025 E15.67079
G1 X131.258 Y124.152 E15.72093
G1 X131.985 Y123.257 E15.77126
G1 X132.688 Y122.348 E15.82140
G1 X133.368 Y121.423 E15.87153
G1 X134.015 Y120.495 E15.92091
G1 X134.657 Y119.527 E15.97164
G1 X135.270 Y118.551 E16.02195
G1 X135.855 Y117.567 E16.07191
G1 X136.420 Y116.562 E16.12223
G1 X136.950 Y115.563 E16.17160
G1 X137.472 Y114.520 E16.22253
G1 X137.960 Y113.481 E16.27265
G1 X138.417 Y112.445 E16.32205
G1 X139.280 Y110.273 E16.42408
G1 X159.662 Y55.123 E18.99076
G1 X160.022 Y54.386 E19.02657
G1 X160.483 Y53.759 E19.06055
G1 X160.918 Y53.329 E19.08722
G1 X161.549 Y52.874 E19.12120
G1 X162.250 Y52.535 E19.15518
G1 X162.999 Y52.323 E19.18916
G1 X163.165 Y52.295 E19.19650
G1 X163.941 Y52.246 E19.23048
G1 X164.715 Y52.332 E19.26445
G1 X165.344 Y52.507 E19.29296
G1 X169.592 Y54.077 E19.49067
G1 X170.184 Y54.353 E19.51916
G1 X170.827 Y54.791 E19.55314
G1 X171.385 Y55.333 E19.58712
G1 X171.841 Y55.965 E19.62111
G1 X172.180 Y56.666 E19.65509
G1 X172.391 Y57.415 E19.68907
G1 X172.470 Y58.189 E19.72305
G1 X172.413 Y58.965 E19.75703
G1 X172.207 Y59.759 E19.79284
G1 X140.554 Y145.409 E23.77894
G1 X140.005 Y147.009 E23.85278
G1 X139.531 Y148.629 E23.92647
G1 X139.323 Y149.445 E23.96322
G1 X138.966 Y151.086 E24.03654
G1 X138.683 Y152.750 E24.11022
G1 X138.571 Y153.584 E24.14697
G1 X138.406 Y155.256 E24.22029
G1 X138.318 Y156.941 E24.29395
G1 X138.309 Y158.621 E24.36729
G1 X138.334 Y159.466 E24.40422
G1 X138.441 Y161.142 E24.47754
G1 X138.525 Y161.980 E24.51429
G1 X138.628 Y162.819 E24.55120
G1 X138.890 Y164.479 E24.62454
G1 X139.052 Y165.309 E24.66147
G1 X139.429 Y166.946 E24.73479
G1 X139.884 Y168.571 E24.80845
G1 X140.412 Y170.165 E24.88178
G1 X140.706 Y170.959 E24.91871
G1 X141.343 Y172.513 E24.99203
G1 X141.692 Y173.284 E25.02896
G1 X142.438 Y174.793 E25.10246
G1 X143.251 Y176.262 E25.17578
G1 X143.686 Y176.988 E25.21271
G1 X144.600 Y178.397 E25.28601
G1 X145.092 Y179.101 E25.32352
G1 X146.096 Y180.436 E25.39646
G1 X147.170 Y181.733 E25.46995
G1 X148.300 Y182.976 E25.54327
G1 X148.890 Y183.582 E25.58019
G1 X150.104 Y184.743 E25.65352
G1 X151.373 Y185.849 E25.72701
G1 X152.037 Y186.388 E25.76434
G1 X152.695 Y186.898 E25.80070
G1 X154.510 Y188.237 E25.89916
G1 X153.640 Y190.884 E26.02080
G1 X135.058 Y190.884 E26.83194
G1 X134.879 Y191.316 E26.85236
G1 X138.942 Y195.378 E27.10315
G1 X137.957 Y197.755 E27.21545
G1 X112.043 Y197.755 E28.34672
G1 X111.058 Y195.378 E28.45902
G1 X115.121 Y191.316 E28.70981
G1 X114.942 Y190.884 E28.73023
G1 X75.058 Y190.884 E30.47128
G1 X74.879 Y191.316 E30.49170
G1 X78.942 Y195.378 E30.74248
G1 X77.957 Y197.755 E30.85478
G1 X52.043 Y197.755 E31.98606
G1 X51.058 Y195.378 E32.09836
G1 X55.121 Y191.316 E32.34914
G1 X54.962 Y190.932 E32.36727
G1 X55.786 Y190.534 F18000.000
G1 X36.614 Y190.534 E33.20424 F1440.000
G1 X35.901 Y188.368 E33.30376
G1 X37.516 Y187.177 E33.39134
G1 X38.188 Y186.657 E33.42845
G1 X39.498 Y185.567 E33.50283
G1 X40.750 Y184.424 E33.57686
G1 X41.360 Y183.826 E33.61415
G1 X42.530 Y182.598 E33.68818
G1 X43.097 Y181.959 E33.72546
G1 X43.647 Y181.311 E33.76257
G1 X44.697 Y179.980 E33.83660
G1 X45.203 Y179.291 E33.87388
G1 X46.160 Y177.887 E33.94809
G1 X46.614 Y177.168 E33.98519
G1 X47.465 Y175.711 E34.05883
G1 X47.874 Y174.951 E34.09652
G1 X48.627 Y173.428 E34.17072
G1 X48.977 Y172.653 E34.20782
G1 X49.618 Y171.092 E34.28146
G1 X49.917 Y170.283 E34.31915
G1 X50.450 Y168.673 E34.39317
G1 X50.909 Y167.036 E34.46739
G1 X51.110 Y166.210 E34.50448
G1 X51.451 Y164.558 E34.57812
G1 X51.597 Y163.703 E34.61599
G1 X51.821 Y162.036 E34.68944
G1 X51.907 Y161.173 E34.72730
G1 X52.015 Y159.493 E34.80075
G1 X52.041 Y158.626 E34.83861
G1 X52.032 Y156.944 E34.91206
G1 X51.997 Y156.077 E34.94993
G1 X51.870 Y154.387 E35.02395
G1 X51.776 Y153.538 E35.06123
G1 X51.663 Y152.695 E35.09834
G1 X51.381 Y151.036 E35.17180
G1 X51.016 Y149.358 E35.24675
G1 X50.806 Y148.535 E35.28386
G1 X50.334 Y146.919 E35.35732
G1 X49.775 Y145.290 E35.43254
G1 X18.124 Y59.645 E39.41840
G1 X17.959 Y59.053 E39.44522
G1 X17.881 Y58.340 E39.47656
G1 X17.951 Y57.489 E39.51383
G1 X18.098 Y56.927 E39.53917
G1 X18.387 Y56.271 E39.57048
G1 X18.874 Y55.569 E39.60778
G1 X19.387 Y55.067 E39.63909
G1 X19.861 Y54.732 E39.66443
G1 X20.537 Y54.403 E39.69724
G1 X24.770 Y52.838 E39.89428
G1 X25.362 Y52.674 E39.92111
G1 X26.076 Y52.596 E39.95242
G1 X26.791 Y52.643 E39.98374
G1 X27.488 Y52.813 E40.01505
G1 X28.264 Y53.170 E40.05235
G1 X28.847 Y53.589 E40.08367
G1 X29.259 Y53.997 E40.10900
G1 X29.753 Y54.695 E40.14629
G1 X30.013 Y55.251 E40.17312
G1 X50.393 Y110.399 E42.73965
G1 X51.258 Y112.575 E42.84187
G1 X51.723 Y113.630 E42.89220
G1 X52.215 Y114.677 E42.94271
G1 X52.730 Y115.708 E42.99303
G1 X53.272 Y116.730 E43.04355
G1 X53.842 Y117.742 E43.09423
G1 X54.440 Y118.748 E43.14534
G1 X55.046 Y119.713 E43.19508
G1 X55.688 Y120.681 E43.24578
G1 X56.348 Y121.627 E43.29610
G1 X57.036 Y122.562 E43.34680
G1 X57.741 Y123.474 E43.39713
G1 X58.471 Y124.372 E43.44764
G1 X59.222 Y125.252 E43.49815
G1 X59.995 Y126.113 E43.54866
G1 X60.791 Y126.959 E43.59936
G1 X61.604 Y127.781 E43.64986
G1 X62.448 Y128.593 E43.70096
G1 X63.291 Y129.366 E43.75089
G1 X64.162 Y130.127 E43.80140
G1 X65.052 Y130.867 E43.85191
G1 X65.960 Y131.585 E43.90242
G1 X66.884 Y132.280 E43.95294
G1 X67.826 Y132.953 E44.00345
G1 X68.783 Y133.603 E44.05396
G1 X69.756 Y134.229 E44.10446
G1 X70.756 Y134.838 E44.15557
G1 X71.746 Y135.409 E44.20549
G1 X72.763 Y135.963 E44.25600
G1 X73.792 Y136.492 E44.30651
G1 X74.830 Y136.993 E44.35684
G1 X75.887 Y137.473 E44.40754
G1 X76.949 Y137.924 E44.45786
G1 X78.024 Y138.350 E44.50837
G1 X79.110 Y138.750 E44.55887
G1 X80.222 Y139.129 E44.61017
G1 X81.313 Y139.471 E44.66009
G1 X82.425 Y139.791 E44.71060
G1 X83.545 Y140.083 E44.76112
G1 X84.667 Y140.347 E44.81144
G1 X85.804 Y140.586 E44.86214
G1 X86.941 Y140.796 E44.91265
G1 X88.084 Y140.978 E44.96316
G1 X89.227 Y141.132 E45.01349
G1 X90.381 Y141.259 E45.06418
G1 X91.534 Y141.357 E45.11468
G1 X92.702 Y141.428 E45.16579
G1 X93.837 Y141.469 E45.21534
G1 X96.170 Y141.469 E45.31719
G1 X97.329 Y141.426 E45.36783
G1 X98.470 Y141.357 E45.41775
G1 X99.623 Y141.258 E45.46827
G1 X100.773 Y141.132 E45.51878
G1 X101.920 Y140.977 E45.56929
G1 X103.063 Y140.795 E45.61980
G1 X104.196 Y140.586 E45.67012
G1 X105.333 Y140.347 E45.72081
G1 X106.472 Y140.079 E45.77192
G1 X107.575 Y139.791 E45.82166
G1 X108.687 Y139.471 E45.87217
G1 X109.795 Y139.123 E45.92287
G1 X110.890 Y138.750 E45.97338
G1 X111.976 Y138.350 E46.02389
G1 X113.051 Y137.924 E46.07440
G1 X114.113 Y137.473 E46.12473
G1 X115.170 Y136.993 E46.17542
G1 X116.208 Y136.492 E46.22575
G1 X117.237 Y135.963 E46.27626
G1 X118.253 Y135.410 E46.32676
G1 X119.271 Y134.822 E46.37805
G1 X120.247 Y134.227 E46.42798
G1 X121.205 Y133.610 E46.47772
G1 X122.178 Y132.950 E46.52901
G1 X123.119 Y132.278 E46.57951
G1 X124.044 Y131.582 E46.63002
G1 X124.948 Y130.867 E46.68035
G1 X125.838 Y130.127 E46.73086
G1 X126.709 Y129.366 E46.78137
G1 X127.562 Y128.584 E46.83188
G1 X128.395 Y127.781 E46.88239
G1 X129.212 Y126.956 E46.93309
G1 X130.003 Y126.117 E46.98342
G1 X130.775 Y125.255 E47.03393
G1 X131.527 Y124.376 E47.08444
G1 X132.257 Y123.478 E47.13495
G1 X132.964 Y122.562 E47.18546
G1 X133.650 Y121.630 E47.23597
G1 X134.302 Y120.696 E47.28572
G1 X134.954 Y119.713 E47.33719
G1 X135.569 Y118.733 E47.38769
G1 X136.158 Y117.743 E47.43802
G1 X136.728 Y116.730 E47.48871
G1 X137.262 Y115.724 E47.53846
G1 X137.787 Y114.673 E47.58975
G1 X138.277 Y113.630 E47.64006
G1 X138.739 Y112.581 E47.69011
G1 X139.607 Y110.399 E47.79261
G1 X159.987 Y55.251 E50.35914
G1 X160.316 Y54.576 E50.39195
G1 X160.741 Y53.997 E50.42327
G1 X161.153 Y53.589 E50.44860
G1 X161.736 Y53.170 E50.47992
G1 X162.382 Y52.860 E50.51123
G1 X163.209 Y52.643 E50.54853
G1 X163.924 Y52.596 E50.57985
G1 X164.637 Y52.673 E50.61115
G1 X165.230 Y52.838 E50.63799
G1 X169.463 Y54.403 E50.83503
G1 X170.020 Y54.663 E50.86186
G1 X170.613 Y55.067 E50.89318
G1 X171.126 Y55.569 E50.92449
G1 X171.544 Y56.151 E50.95581
G1 X171.855 Y56.798 E50.98713
