; generated by Slic3r 1.1.7 on 2014-11-24 at 17:20:08

; perimeters extrusion width = 0.35mm
; infill extrusion width = 0.37mm
; solid infill extrusion width = 0.37mm
; top infill extrusion width = 0.37mm

G21 ; set units to millimeters
M107
;-- Slic3r Start G-Code for M2 starts --
;  Ed Nisley KE4NZU - March 2013
M140 S60; start bed heating
G90             ; absolute coordinates
G21             ; millimeters
M83             ; relative extrusion distance
M84             ; disable stepper current
G4 S3           ; allow Z stage to freefall to the floor
G28 X0          ; home X
G28 Y0          ; home Y
G28 Z0          ; home Z
G1 X95 Y5 F30000    ; set up for prime near front edge
G1 Z0.0 F2500   ; plug extruder on plate
G1 E10 F300     ; prime to get pressure
G1 Z5 F2500     ; rise above blob
G1 Y10 F30000 ; move away
G1 Z0.0 F2500   ; dab nozzle to remove outer snot
G4 P1           ; pause to clear
G1 Z0.1         ; clear bed for travel
M190 60       ; wait for bed to finish heating
M109 195     ; set extruder temperature and wait
;-- Slic3r Start G-Code ends --
G90 ; use absolute coordinates
G92 E0
M82 ; use absolute distances for extrusion
G1 F600.000 E-1.00000
G1 Z1.150 F18000.000
G92 E0
G1 X18.110 Y72.217 F18000.000
G1 Z0.350 F18000.000
G1 E1.00000 F600.000
G1 X165.632 Y48.213 E8.61205 F1440.000
G1 X167.067 Y48.217 E8.68514
G1 X167.500 Y48.268 E8.70735 F1440.000
G1 X168.480 Y48.470 E8.75829
G1 X169.828 Y48.965 E8.83141
G1 X171.067 Y49.685 E8.90444
G1 X172.165 Y50.611 E8.97760
G1 X173.084 Y51.712 E9.05064
G1 X173.582 Y52.510 E9.09852
G1 X175.906 Y56.872 E9.35024
G1 X176.393 Y58.221 E9.42330
G1 X176.639 Y59.635 E9.49638
G1 X176.635 Y61.071 E9.56949
G1 X176.382 Y62.483 E9.64259
G1 X176.121 Y63.298 E9.68617
G1 X126.819 Y192.722 E16.73974
G1 X126.427 Y193.576 E16.78759
G1 X124.065 Y197.916 E17.03923
G1 X123.206 Y199.067 E17.11238
G1 X122.161 Y200.050 E17.18546
G1 X120.960 Y200.837 E17.25856
G1 X119.641 Y201.403 E17.33164
G1 X118.244 Y201.732 E17.40474
G1 X116.811 Y201.813 E17.47784
G1 X115.386 Y201.644 E17.55092
G1 X114.414 Y201.385 E17.60215
G1 X17.174 Y167.962 E22.83896
G1 X15.327 Y166.908 E22.94724
G1 X13.995 Y165.250 E23.05551
G1 X13.326 Y162.571 E23.19616
G1 X13.326 Y77.842 E27.51135
G1 X13.723 Y75.754 E27.61963
G1 X14.857 Y73.956 E27.72790
G1 X16.572 Y72.698 E27.83618
G1 X18.060 Y72.232 E27.91560
G1 X18.166 Y72.562 F18000.000
G1 X165.652 Y48.562 E35.52580 F1440.000
G1 X167.026 Y48.564 E35.59579
G1 X167.459 Y48.615 E35.61799 F1440.000
G1 X168.379 Y48.805 E35.66583
G1 X169.670 Y49.277 E35.73585
G1 X170.858 Y49.966 E35.80577
G1 X171.911 Y50.851 E35.87582
G1 X172.792 Y51.905 E35.94576
G1 X173.274 Y52.676 E35.99209
G1 X175.585 Y57.010 E36.24224
G1 X176.053 Y58.302 E36.31220
G1 X176.289 Y59.655 E36.38217
G1 X176.287 Y61.030 E36.45218
G1 X176.046 Y62.383 E36.52218
G1 X175.794 Y63.174 E36.56446
G1 X126.497 Y192.584 E43.61727
G1 X126.119 Y193.411 E43.66357
G1 X123.773 Y197.724 E43.91365
G1 X122.951 Y198.827 E43.98369
G1 X121.951 Y199.769 E44.05367
G1 X120.803 Y200.524 E44.12366
G1 X119.541 Y201.068 E44.19364
G1 X118.204 Y201.384 E44.26363
G1 X116.831 Y201.463 E44.33363
G1 X115.467 Y201.303 E44.40360
G1 X114.528 Y201.054 E44.45307
G1 X17.287 Y167.631 E49.68987
G1 X15.505 Y166.599 E49.79475
G1 X14.245 Y164.971 E49.89962
G1 X13.676 Y162.571 E50.02521
G1 X13.676 Y77.842 E54.34040
G1 X14.073 Y75.822 E54.44527
G1 X15.203 Y74.101 E54.55014
G1 X16.899 Y72.934 E54.65501
G1 X18.116 Y72.577 E54.71957
G1 F600.000 E53.71957
G1 Z1.150 F18000.000
G92 E0
G1 X23.840 Y91.751 F18000.000
G1 Z0.350 F18000.000
G1 E1.00000 F600.000
G1 X20.400 Y95.192 E1.24782 F1440.000
G1 X19.692 Y95.485 E1.28682
G1 X18.229 Y95.485 E1.36133
G1 X17.101 Y94.357 E1.44255
G1 X17.101 Y77.045 E2.32424
G1 X18.229 Y75.918 E2.40546
G1 X44.541 Y75.918 E3.74551
G1 X45.669 Y77.045 E3.82673
G1 X45.669 Y78.508 E3.90124
G1 X45.375 Y79.216 E3.94024
G1 X41.935 Y82.656 E4.18806
G1 X42.114 Y83.089 E4.21188
G1 X55.939 Y83.089 E4.91599
G1 X56.118 Y82.656 E4.93981
G1 X52.677 Y79.216 E5.18763
G1 X52.384 Y78.508 E5.22663
G1 X52.384 Y77.045 E5.30115
G1 X53.512 Y75.918 E5.38237
G1 X76.570 Y75.918 E6.55670
G1 X77.136 Y76.097 E6.58695
G1 X78.788 Y77.233 E6.68907
G1 X80.216 Y78.117 E6.77461
G1 X80.947 Y78.535 E6.81749
G1 X82.437 Y79.319 E6.90323
G1 X83.961 Y80.034 E6.98898
G1 X85.517 Y80.676 E7.07471
G1 X87.106 Y81.248 E7.16068
G1 X88.711 Y81.742 E7.24622
G1 X90.341 Y82.162 E7.33197
G1 X91.989 Y82.507 E7.41772
G1 X93.652 Y82.774 E7.50347
G1 X95.324 Y82.964 E7.58922
G1 X97.008 Y83.076 E7.67517
G1 X97.850 Y83.102 E7.71805
G1 X99.530 Y83.097 E7.80359
G1 X101.211 Y83.014 E7.88934
G1 X102.887 Y82.852 E7.97508
G1 X104.554 Y82.613 E8.06083
G1 X106.211 Y82.296 E8.14679
G1 X107.032 Y82.109 E8.18966
G1 X108.656 Y81.679 E8.27520
G1 X110.280 Y81.167 E8.36193
G1 X111.059 Y80.891 E8.40403
G1 X112.557 Y80.301 E8.48602
G1 X164.323 Y52.429 E11.48030
G1 X165.005 Y52.151 E11.51780
G1 X165.599 Y52.011 E11.54891
G1 X166.375 Y51.951 E11.58856
G1 X167.150 Y52.028 E11.62822
G1 X167.900 Y52.237 E11.66785
G1 X168.056 Y52.299 E11.67642
G1 X168.745 Y52.662 E11.71605
G1 X169.234 Y53.027 E11.74716
G1 X169.360 Y53.139 E11.75573
G1 X169.883 Y53.715 E11.79537
G1 X170.239 Y54.263 E11.82861
G1 X172.386 Y58.250 E12.05928
G1 X172.700 Y59.008 E12.10105
G1 X172.865 Y59.769 E12.14069
G1 X172.900 Y60.379 E12.17180
G1 X172.895 Y60.547 E12.18037
G1 X172.790 Y61.318 E12.22002
G1 X172.552 Y62.059 E12.25966
G1 X172.190 Y62.748 E12.29930
G1 X171.713 Y63.363 E12.33895
G1 X171.268 Y63.782 E12.37006
G1 X170.589 Y64.242 E12.41183
G1 X90.194 Y107.535 E17.06223
G1 X88.878 Y108.280 E17.13925
G1 X87.604 Y109.077 E17.21579
G1 X86.365 Y109.928 E17.29233
G1 X85.164 Y110.831 E17.36888
G1 X84.003 Y111.785 E17.44540
G1 X83.425 Y112.292 E17.48458
G1 X82.340 Y113.307 E17.56023
G1 X81.285 Y114.384 E17.63698
G1 X80.281 Y115.501 E17.71352
G1 X79.325 Y116.661 E17.79006
G1 X78.420 Y117.861 E17.86660
G1 X77.568 Y119.099 E17.94315
G1 X76.772 Y120.369 E18.01950
G1 X76.027 Y121.679 E18.09623
G1 X75.343 Y123.013 E18.17258
G1 X74.716 Y124.379 E18.24913
G1 X74.146 Y125.774 E18.32586
G1 X73.640 Y127.185 E18.40221
G1 X73.192 Y128.623 E18.47894
G1 X72.809 Y130.073 E18.55530
G1 X72.641 Y130.805 E18.59358
G1 X72.487 Y131.545 E18.63204
G1 X72.230 Y133.022 E18.70840
G1 X72.036 Y134.516 E18.78512
G1 X71.908 Y135.996 E18.86079
G1 X71.866 Y136.764 E18.89996
G1 X71.842 Y137.515 E18.93821
G1 X71.842 Y139.014 E19.01457
G1 X71.907 Y140.519 E19.09130
G1 X71.964 Y141.268 E19.12957
G1 X72.125 Y142.759 E19.20593
G1 X72.230 Y143.507 E19.24439
G1 X72.487 Y144.984 E19.32076
G1 X72.808 Y146.452 E19.39728
G1 X72.994 Y147.184 E19.43575
G1 X73.408 Y148.625 E19.51212
G1 X73.885 Y150.050 E19.58865
G1 X74.424 Y151.457 E19.66538
G1 X74.716 Y152.150 E19.70365
G1 X75.338 Y153.503 E19.77951
G1 X76.029 Y154.853 E19.85674
G1 X76.770 Y156.156 E19.93309
G1 X77.164 Y156.800 E19.97155
G1 X77.570 Y157.432 E20.00983
G1 X78.413 Y158.656 E20.08549
G1 X79.328 Y159.870 E20.16292
G1 X80.272 Y161.017 E20.23858
G1 X80.777 Y161.592 E20.27756
G1 X81.808 Y162.690 E20.35428
G1 X82.880 Y163.738 E20.43063
G1 X83.435 Y164.246 E20.46890
G1 X84.578 Y165.227 E20.54564
G1 X85.746 Y166.145 E20.62130
G1 X86.362 Y166.599 E20.66028
G1 X87.601 Y167.449 E20.73681
G1 X88.866 Y168.240 E20.81277
G1 X90.204 Y168.999 E20.89114
G1 X121.326 Y185.758 E22.69138
G1 X121.874 Y186.114 E22.72462
G1 X122.450 Y186.637 E22.76426
G1 X122.927 Y187.252 E22.80390
G1 X123.015 Y187.395 E22.81247
G1 X123.290 Y187.941 E22.84359
G1 X123.527 Y188.682 E22.88323
G1 X123.633 Y189.453 E22.92287
G1 X123.638 Y189.621 E22.93144
G1 X123.578 Y190.397 E22.97107
G1 X123.385 Y191.152 E23.01073
G1 X123.123 Y191.750 E23.04397
G1 X120.976 Y195.737 E23.27463
G1 X120.621 Y196.284 E23.30786
G1 X120.098 Y196.861 E23.34752
G1 X119.482 Y197.338 E23.38716
G1 X118.793 Y197.701 E23.42681
G1 X118.052 Y197.938 E23.46645
G1 X117.281 Y198.044 E23.50611
G1 X116.503 Y198.013 E23.54575
G1 X115.742 Y197.849 E23.58539
G1 X114.985 Y197.534 E23.62717
G1 X84.027 Y180.863 E25.41791
G1 X79.180 Y178.375 E25.69540
G1 X77.970 Y177.792 E25.76379
G1 X75.516 Y176.652 E25.90162
G1 X74.279 Y176.100 E25.97058
G1 X73.036 Y175.559 E26.03963
G1 X70.538 Y174.518 E26.17746
G1 X69.279 Y174.014 E26.24652
G1 X66.752 Y173.047 E26.38434
G1 X65.478 Y172.581 E26.45339
G1 X62.923 Y171.689 E26.59123
G1 X60.348 Y170.846 E26.72924
G1 X57.760 Y170.056 E26.86707
G1 X56.457 Y169.679 E26.93611
G1 X53.845 Y168.965 E27.07403
G1 X51.219 Y168.303 E27.21195
G1 X48.582 Y167.694 E27.34979
G1 X45.932 Y167.136 E27.48770
G1 X43.272 Y166.631 E27.62563
G1 X40.600 Y166.178 E27.76363
G1 X39.262 Y165.971 E27.83260
G1 X36.582 Y165.598 E27.97042
G1 X33.892 Y165.278 E28.10835
G1 X31.196 Y165.010 E28.24635
G1 X28.496 Y164.796 E28.38427
G1 X25.795 Y164.636 E28.52210
G1 X24.442 Y164.576 E28.59107
G1 X21.751 Y164.496 E28.72819
G1 X18.229 Y164.496 E28.90755
G1 X17.101 Y163.368 E28.98877
G1 X17.101 Y146.057 E29.87046
G1 X18.229 Y144.929 E29.95167
G1 X19.692 Y144.929 E30.02619
G1 X20.400 Y145.222 E30.06519
G1 X23.840 Y148.663 E30.31301
G1 X24.272 Y148.484 E30.33683
G1 X24.272 Y134.658 E31.04094
G1 X23.840 Y134.479 E31.06476
G1 X20.400 Y137.920 E31.31258
G1 X19.692 Y138.213 E31.35158
G1 X18.229 Y138.213 E31.42610
G1 X17.101 Y137.086 E31.50732
G1 X17.101 Y103.328 E33.22657
G1 X18.229 Y102.200 E33.30779
G1 X19.692 Y102.200 E33.38231
G1 X20.400 Y102.493 E33.42131
G1 X23.840 Y105.934 E33.66913
G1 X24.272 Y105.755 E33.69295
G1 X24.272 Y91.930 E34.39706
G1 X23.889 Y91.771 E34.41821
G1 X24.190 Y90.906 F18000.000
G1 X20.201 Y94.895 E34.70552 F1440.000
G1 X19.623 Y95.135 E34.73743
G1 X18.374 Y95.135 E34.80101
G1 X17.451 Y94.212 E34.86746
G1 X17.451 Y77.190 E35.73438
G1 X18.374 Y76.267 E35.80083
G1 X44.396 Y76.267 E37.12612
G1 X45.319 Y77.190 E37.19257
G1 X45.319 Y78.439 E37.25615
G1 X45.079 Y79.017 E37.28806
G1 X41.090 Y83.006 E37.57537
G1 X41.269 Y83.439 E37.59919
G1 X56.784 Y83.439 E38.38937
G1 X56.963 Y83.006 E38.41319
G1 X52.974 Y79.018 E38.70050
G1 X52.734 Y78.439 E38.73241
G1 X52.734 Y77.190 E38.79600
G1 X53.657 Y76.267 E38.86245
G1 X76.516 Y76.267 E40.02665
G1 X76.979 Y76.414 E40.05140
G1 X78.597 Y77.526 E40.15138
G1 X80.039 Y78.419 E40.23775
G1 X80.777 Y78.841 E40.28104
G1 X82.281 Y79.633 E40.36762
G1 X83.820 Y80.354 E40.45420
G1 X85.391 Y81.003 E40.54076
G1 X86.995 Y81.580 E40.62755
G1 X88.616 Y82.079 E40.71392
G1 X90.262 Y82.503 E40.80050
G1 X91.926 Y82.851 E40.88707
G1 X93.608 Y83.121 E40.97386
G1 X95.297 Y83.313 E41.06043
G1 X96.993 Y83.426 E41.14701
G1 X97.843 Y83.452 E41.19030
G1 X99.539 Y83.447 E41.27667
G1 X101.237 Y83.363 E41.36324
G1 X102.929 Y83.200 E41.44982
G1 X104.611 Y82.958 E41.53640
G1 X106.285 Y82.638 E41.62318
G1 X107.114 Y82.449 E41.66647
G1 X108.753 Y82.015 E41.75284
G1 X110.393 Y81.498 E41.84039
G1 X111.970 Y80.919 E41.92599
G1 X112.706 Y80.619 E41.96648
G1 X164.406 Y52.777 E44.95705
G1 X165.100 Y52.488 E44.99533
G1 X165.665 Y52.355 E45.02488
G1 X166.380 Y52.302 E45.06142
G1 X167.094 Y52.373 E45.09797
G1 X167.913 Y52.619 E45.14147
G1 X168.548 Y52.952 E45.17799
G1 X169.013 Y53.298 E45.20755
G1 X169.599 Y53.920 E45.25106
G1 X169.934 Y54.435 E45.28236
G1 X172.074 Y58.410 E45.51225
G1 X172.363 Y59.103 E45.55052
G1 X172.516 Y59.804 E45.58706
G1 X172.546 Y60.521 E45.62360
G1 X172.478 Y61.097 E45.65315
G1 X172.284 Y61.788 E45.68969
G1 X171.900 Y62.551 E45.73320
G1 X171.462 Y63.119 E45.76973
G1 X170.931 Y63.602 E45.80627
G1 X170.416 Y63.937 E45.83757
G1 X90.027 Y107.228 E50.48767
G1 X88.696 Y107.982 E50.56556
G1 X87.412 Y108.784 E50.64267
G1 X86.161 Y109.643 E50.71998
G1 X84.947 Y110.556 E50.79730
G1 X83.775 Y111.519 E50.87459
G1 X83.191 Y112.031 E50.91415
G1 X82.093 Y113.060 E50.99076
G1 X81.030 Y114.144 E51.06808
G1 X80.018 Y115.270 E51.14520
G1 X79.050 Y116.444 E51.22270
G1 X78.136 Y117.657 E51.30001
G1 X77.276 Y118.907 E51.37732
G1 X76.469 Y120.193 E51.45463
G1 X75.719 Y121.513 E51.53194
G1 X75.029 Y122.860 E51.60906
G1 X74.395 Y124.240 E51.68637
G1 X73.821 Y125.645 E51.76368
G1 X73.308 Y127.074 E51.84099
G1 X72.856 Y128.527 E51.91849
G1 X72.469 Y129.991 E51.99562
G1 X72.299 Y130.730 E52.03428
G1 X72.144 Y131.477 E52.07313
G1 X71.884 Y132.969 E52.15025
G1 X71.688 Y134.478 E52.22774
G1 X71.559 Y135.973 E52.30417
G1 X71.517 Y136.749 E52.34373
G1 X71.492 Y137.507 E52.38237
G1 X71.492 Y139.021 E52.45949
G1 X71.558 Y140.542 E52.53699
G1 X71.615 Y141.299 E52.57565
G1 X71.778 Y142.804 E52.65277
G1 X71.884 Y143.559 E52.69162
G1 X72.144 Y145.051 E52.76875
G1 X72.468 Y146.534 E52.84605
G1 X72.655 Y147.274 E52.88490
G1 X73.074 Y148.729 E52.96203
G1 X73.555 Y150.168 E53.03933
G1 X74.100 Y151.589 E53.11683
G1 X74.395 Y152.289 E53.15548
G1 X75.023 Y153.656 E53.23211
G1 X75.721 Y155.019 E53.31011
G1 X76.469 Y156.335 E53.38723
G1 X76.868 Y156.986 E53.42608
G1 X77.278 Y157.625 E53.46474
G1 X78.129 Y158.861 E53.54116
G1 X79.050 Y160.084 E53.61916
G1 X79.529 Y160.678 E53.65801
G1 X80.517 Y161.826 E53.73515
G1 X81.556 Y162.932 E53.81244
G1 X82.644 Y163.996 E53.88995
G1 X83.772 Y165.007 E53.96707
G1 X84.356 Y165.497 E54.00592
G1 X85.535 Y166.425 E54.08235
G1 X86.158 Y166.883 E54.12171
G1 X87.409 Y167.742 E54.19900
G1 X88.688 Y168.542 E54.27583
G1 X90.035 Y169.305 E54.35468
G1 X121.154 Y186.063 E56.15472
G1 X121.669 Y186.398 E56.18602
G1 X122.199 Y186.881 E56.22256
G1 X122.710 Y187.566 E56.26607
G1 X122.970 Y188.084 E56.29562
G1 X123.188 Y188.768 E56.33216
G1 X123.287 Y189.616 E56.37567
G1 X123.234 Y190.332 E56.41220
G1 X123.057 Y191.027 E56.44874
G1 X122.812 Y191.590 E56.48004
G1 X120.671 Y195.564 E56.70992
G1 X120.337 Y196.080 E56.74121
G1 X119.853 Y196.610 E56.77776
G1 X119.285 Y197.048 E56.81429
G1 X118.650 Y197.381 E56.85083
G1 X117.966 Y197.599 E56.88736
G1 X117.255 Y197.694 E56.92391
G1 X116.538 Y197.665 E56.96044
G1 X115.838 Y197.512 E56.99698
G1 X115.144 Y197.222 E57.03525
G1 X84.190 Y180.553 E58.82578
G1 X79.336 Y178.062 E59.10367
G1 X78.122 Y177.476 E59.17228
G1 X75.660 Y176.333 E59.31055
G1 X74.419 Y175.779 E59.37978
G1 X73.174 Y175.238 E59.44891
G1 X70.670 Y174.193 E59.58710
G1 X69.407 Y173.689 E59.65633
G1 X66.874 Y172.719 E59.79451
G1 X65.597 Y172.252 E59.86373
G1 X63.035 Y171.357 E60.00192
G1 X60.453 Y170.513 E60.14028
G1 X57.858 Y169.720 E60.27846
G1 X56.553 Y169.343 E60.34769
G1 X53.934 Y168.627 E60.48596
G1 X51.303 Y167.964 E60.62414
G1 X48.658 Y167.352 E60.76242
G1 X46.001 Y166.793 E60.90068
G1 X43.332 Y166.286 E61.03905
G1 X40.655 Y165.832 E61.17732
G1 X39.314 Y165.625 E61.24646
G1 X36.626 Y165.251 E61.38464
G1 X33.930 Y164.930 E61.52291
G1 X31.227 Y164.662 E61.66127
G1 X28.521 Y164.447 E61.79954
G1 X25.812 Y164.287 E61.93773
G1 X24.456 Y164.226 E62.00686
G1 X21.755 Y164.146 E62.14448
G1 X18.374 Y164.146 E62.31667
G1 X17.451 Y163.223 E62.38312
G1 X17.451 Y146.201 E63.25004
G1 X18.374 Y145.279 E63.31649
G1 X19.623 Y145.279 E63.38008
G1 X20.201 Y145.519 E63.41199
G1 X24.190 Y149.508 E63.69929
G1 X24.622 Y149.329 E63.72312
G1 X24.622 Y133.813 E64.51330
G1 X24.190 Y133.634 E64.53712
G1 X20.201 Y137.623 E64.82442
G1 X19.623 Y137.863 E64.85633
G1 X18.374 Y137.863 E64.91992
G1 X17.451 Y136.941 E64.98637
G1 X17.451 Y103.473 E66.69086
G1 X18.374 Y102.550 E66.75731
G1 X19.623 Y102.550 E66.82090
G1 X20.201 Y102.790 E66.85281
G1 X24.190 Y106.779 E67.14012
G1 X24.622 Y106.600 E67.16394
G1 X24.622 Y91.085 E67.95412
G1 X24.239 Y90.926 E67.97526
G1 X24.540 Y90.061 F18000.000
G1 X20.003 Y94.598 E68.30206 F1440.000
G1 X19.553 Y94.785 E68.32688
G1 X18.519 Y94.785 E68.37953
G1 X17.801 Y94.067 E68.43122
G1 X17.801 Y77.335 E69.28337
G1 X18.519 Y76.617 E69.33506
G1 X44.251 Y76.617 E70.64557
G1 X44.969 Y77.335 E70.69726
G1 X44.969 Y78.369 E70.74991
G1 X44.782 Y78.819 E70.77473
G1 X40.245 Y83.356 E71.10153
G1 X40.424 Y83.789 E71.12535
G1 X57.629 Y83.789 E72.00160
G1 X57.808 Y83.356 E72.02542
G1 X53.271 Y78.819 E72.35221
G1 X53.084 Y78.369 E72.37703
G1 X53.084 Y77.335 E72.42969
G1 X53.802 Y76.617 E72.48137
G1 X76.462 Y76.617 E73.63544
G1 X76.822 Y76.731 E73.65469
G1 X78.406 Y77.819 E73.75255
G1 X79.862 Y78.721 E73.83974
G1 X80.607 Y79.147 E73.88345
G1 X82.125 Y79.946 E73.97085
G1 X83.679 Y80.674 E74.05826
